;Generated with Cura_SteamEngine 13.11.2
;Sliced at: Tue 10-12-2013 09:06:03
;Basic settings: Layer height: 0.25 Walls: 0.8 Fill: 100
;Print time: #P_TIME#
;Filament used: #F_AMNT#m #F_WGHT#g
;Filament cost: #F_COST#
G21        ;metric values
G90        ;absolute positioning
M107       ;start with the fan off
G28 X0 Y0  ;move X/Y to min endstops
G28 Z0     ;move Z to min endstops
G1 Z15.0 F9000 ;move the platform down 15mm
;T1
;G92 E0                  ;zero the extruded length
;G1 F200 E10             ;extrude 10mm of feed stock
;G92 E0                  ;zero the extruded length again
;G1 F200 E-16.5
;T0
G92 E0                  ;zero the extruded length
G1 F200 E10              ;extrude 10mm of feed stock
G92 E0                  ;zero the extruded length again
G1 F9000
M117 Printing...

;Layer count: 4
;LAYER:0
M107
G0 F3600 X88.90 Y87.63 Z0.30
;TYPE:SKIRT
G1 F2400 E0.00000
G1 F1200 X91.01 Y85.52 E0.05454
G1 X113.21 Y85.52 E0.46078
G1 X114.54 Y86.07 E0.48697
G1 X115.55 Y87.08 E0.51320
G1 X116.10 Y88.41 E0.53940
G1 X116.10 Y110.61 E0.94564
G1 X113.99 Y112.72 E1.00020
G1 X91.01 Y112.72 E1.42064
G1 X88.90 Y110.61 E1.47519
G1 X88.90 Y87.63 E1.89563
G0 F3600 X89.30 Y87.80
G1 F1200 X91.17 Y85.92 E1.94411
G1 X113.14 Y85.92 E2.34585
G1 X114.31 Y86.41 E2.36913
G1 X115.21 Y87.31 E2.39246
G1 X115.70 Y88.49 E2.41575
G1 X115.70 Y110.45 E2.81749
G1 X113.82 Y112.32 E2.86600
G1 X91.17 Y112.32 E3.28036
G1 X89.30 Y110.45 E3.32886
G1 X89.30 Y87.80 E3.74322
G1 F2400 E-0.75678
G0 F3600 X97.15 Y94.57
;TYPE:WALL-INNER
G1 F2400 E3.74322
G1 F1200 X97.95 Y93.77 E3.76395
G1 X99.22 Y94.72 E3.79286
G1 X99.61 Y94.72 E3.80008
G1 X99.82 Y94.57 E3.80488
G1 X100.99 Y97.06 E3.85526
G1 X100.71 Y97.26 E3.86156
G1 X100.64 Y97.33 E3.86331
G1 X100.22 Y97.91 E3.87641
G1 X100.18 Y97.99 E3.87809
G1 X99.96 Y98.67 E3.89116
G1 X99.94 Y98.77 E3.89290
G1 X99.94 Y99.48 E3.90591
G1 X99.96 Y99.57 E3.90765
G1 X100.18 Y100.25 E3.92072
G1 X100.22 Y100.33 E3.92240
G1 X100.64 Y100.91 E3.93550
G1 X100.71 Y100.98 E3.93726
G1 X101.29 Y101.40 E3.95036
G1 X101.37 Y101.44 E3.95205
G1 X102.05 Y101.66 E3.96512
G1 X102.14 Y101.68 E3.96686
G1 X102.86 Y101.68 E3.97987
G1 X102.95 Y101.66 E3.98161
G1 X103.63 Y101.44 E3.99468
G1 X103.71 Y101.40 E3.99637
G1 X104.29 Y100.98 E4.00947
G1 X104.36 Y100.91 E4.01122
G1 X104.78 Y100.33 E4.02432
G1 X104.82 Y100.25 E4.02601
G1 X105.04 Y99.57 E4.03908
G1 X105.06 Y99.48 E4.04082
G1 X105.06 Y98.77 E4.05383
G1 X105.04 Y98.67 E4.05557
G1 X104.82 Y97.99 E4.06864
G1 X104.78 Y97.91 E4.07033
G1 X104.36 Y97.33 E4.08343
G1 X104.29 Y97.26 E4.08517
G1 X104.01 Y97.06 E4.09147
G1 X105.18 Y94.56 E4.14187
G1 X105.39 Y94.72 E4.14669
G1 X105.78 Y94.72 E4.15390
G1 X107.05 Y93.77 E4.18280
G1 X107.85 Y94.57 E4.20354
G1 X106.90 Y95.84 E4.23246
G1 X106.90 Y96.23 E4.23966
G1 X107.25 Y96.70 E4.25031
G1 X107.70 Y98.11 E4.27742
G1 X107.96 Y98.33 E4.28371
G1 X109.50 Y98.56 E4.31208
G1 X109.50 Y99.69 E4.33280
G1 X107.96 Y99.91 E4.36118
G1 X107.70 Y100.13 E4.36746
G1 X107.25 Y101.54 E4.39456
G1 X106.90 Y102.01 E4.40523
G1 X106.90 Y102.41 E4.41244
G1 X107.85 Y103.67 E4.44134
G1 X107.05 Y104.47 E4.46206
G1 X105.78 Y103.53 E4.49096
G1 X105.39 Y103.52 E4.49816
G1 X104.92 Y103.87 E4.50881
G1 X103.51 Y104.32 E4.53593
G1 X103.29 Y104.59 E4.54222
G1 X103.07 Y106.12 E4.57059
G1 X101.93 Y106.12 E4.59132
G1 X101.71 Y104.59 E4.61969
G1 X101.49 Y104.32 E4.62597
G1 X100.08 Y103.87 E4.65309
G1 X99.61 Y103.52 E4.66373
G1 X99.22 Y103.53 E4.67094
G1 X97.95 Y104.47 E4.69985
G1 X97.15 Y103.67 E4.72060
G1 X98.09 Y102.40 E4.74949
G1 X98.10 Y102.01 E4.75670
G1 X97.75 Y101.54 E4.76736
G1 X97.30 Y100.13 E4.79446
G1 X97.03 Y99.91 E4.80074
G1 X95.50 Y99.69 E4.82910
G1 X95.50 Y98.56 E4.84982
G1 X97.03 Y98.33 E4.87818
G1 X97.30 Y98.11 E4.88446
G1 X97.75 Y96.70 E4.91156
G1 X98.10 Y96.23 E4.92220
G1 X98.10 Y95.84 E4.92943
G1 X97.15 Y94.57 E4.95834
G0 F3600 X96.62 Y94.53
;TYPE:WALL-OUTER
G1 F1200 X97.91 Y93.24 E4.99174
G1 X99.35 Y94.32 E5.02456
G1 X99.48 Y94.32 E5.02697
G1 X99.90 Y94.01 E5.03643
G1 X99.99 Y93.98 E5.03825
G1 X101.49 Y97.19 E5.10302
G1 X100.95 Y97.59 E5.11537
G1 X100.56 Y98.12 E5.12732
G1 X100.55 Y98.15 E5.12789
G1 X100.34 Y98.80 E5.14037
G1 X100.35 Y99.48 E5.15278
G1 X100.55 Y100.10 E5.16469
G1 X100.56 Y100.12 E5.16526
G1 X100.97 Y100.68 E5.17780
G1 X101.50 Y101.06 E5.18974
G1 X101.53 Y101.07 E5.19032
G1 X102.18 Y101.28 E5.20280
G1 X102.85 Y101.27 E5.21520
G1 X103.47 Y101.07 E5.22712
G1 X103.50 Y101.06 E5.22769
G1 X104.05 Y100.65 E5.24022
G1 X104.44 Y100.12 E5.25217
G1 X104.45 Y100.10 E5.25274
G1 X104.66 Y99.44 E5.26523
G1 X104.65 Y98.77 E5.27763
G1 X104.45 Y98.15 E5.28954
G1 X104.44 Y98.12 E5.29012
G1 X104.03 Y97.57 E5.30265
G1 X103.51 Y97.19 E5.31442
G1 X105.01 Y93.98 E5.37919
G1 X105.10 Y94.01 E5.38101
G1 X105.52 Y94.32 E5.39046
G1 X105.65 Y94.32 E5.39288
G1 X107.09 Y93.24 E5.42570
G1 X108.38 Y94.53 E5.45910
G1 X107.30 Y95.97 E5.49192
G1 X107.30 Y96.10 E5.49433
G1 X107.61 Y96.52 E5.50379
G1 X108.05 Y97.88 E5.52992
G1 X108.14 Y97.95 E5.53200
G1 X109.90 Y98.21 E5.56462
G1 X109.90 Y100.04 E5.59804
G1 X108.14 Y100.29 E5.63067
G1 X108.05 Y100.36 E5.63275
G1 X107.61 Y101.72 E5.65892
G1 X107.30 Y102.14 E5.66835
G1 X107.30 Y102.27 E5.67075
G1 X108.38 Y103.71 E5.70357
G1 X107.09 Y105.00 E5.73697
G1 X105.65 Y103.93 E5.76979
G1 X105.52 Y103.93 E5.77218
G1 X105.10 Y104.23 E5.78161
G1 X103.74 Y104.67 E5.80779
G1 X103.67 Y104.76 E5.80987
G1 X103.41 Y106.52 E5.84249
G1 X101.59 Y106.52 E5.87591
G1 X101.33 Y104.76 E5.90854
G1 X101.26 Y104.67 E5.91061
G1 X99.90 Y104.23 E5.93675
G1 X99.48 Y103.93 E5.94620
G1 X99.35 Y103.93 E5.94862
G1 X97.91 Y105.00 E5.98144
G1 X96.62 Y103.71 E6.01484
G1 X97.69 Y102.27 E6.04766
G1 X97.70 Y102.14 E6.05007
G1 X97.39 Y101.72 E6.05953
G1 X96.95 Y100.36 E6.08566
G1 X96.86 Y100.29 E6.08774
G1 X95.10 Y100.04 E6.12035
G1 X95.10 Y98.21 E6.15377
G1 X96.86 Y97.95 E6.18637
G1 X96.95 Y97.88 E6.18845
G1 X97.39 Y96.52 E6.21459
G1 X97.70 Y96.10 E6.22404
G1 X97.69 Y95.97 E6.22646
G1 X96.62 Y94.53 E6.25928
G0 F3600 X97.51 Y94.40
;TYPE:FILL
G1 F1200 X100.46 Y97.35 E6.33541
G0 F3600 X100.74 Y97.06
G1 F1200 X97.80 Y94.12 E6.41158
G0 F3600 X98.90 Y94.65
G1 F1200 X100.42 Y96.18 E6.45093
G0 F3600 X99.92 Y95.11
G1 F1200 X99.66 Y94.85 E6.45778
G0 F3600 X97.93 Y95.39
G1 F1200 X100.22 Y97.67 E6.51700
G0 F3600 X100.02 Y98.04
G1 F1200 X98.24 Y96.25 E6.56308
G0 F3600 X98.01 Y96.59
G1 F1200 X99.88 Y98.46 E6.61148
G0 F3600 X99.80 Y98.95
G1 F1200 X97.81 Y96.97 E6.66289
G0 F3600 X97.68 Y97.39
G1 F1200 X99.81 Y99.52 E6.71799
G0 F3600 X100.08 Y100.36
G1 F1200 X97.54 Y97.82 E6.78378
G0 F3600 X97.38 Y98.23
G1 F1200 X103.39 Y104.24 E6.93942
G0 F3600 X103.15 Y104.56
G1 F1200 X97.06 Y98.47 E7.09705
G0 F3600 X96.56 Y98.54
G1 F1200 X103.08 Y105.06 E7.26560
G0 F3600 X103.01 Y105.55
G1 F1200 X96.07 Y98.61 E7.44509
G0 F3600 X95.64 Y98.75
G1 F1200 X96.59 Y99.70 E7.46975
G0 F3600 X95.93 Y99.61
G1 F1200 X95.64 Y99.32 E7.47727
G0 F3600 X97.29 Y100.14
G0 X97.65 Y100.76
G1 F1200 X100.86 Y103.97 E7.56037
G0 F3600 X99.84 Y103.51
G1 F1200 X98.10 Y101.78 E7.60536
G0 F3600 X98.22 Y102.46
G1 F1200 X99.15 Y103.40 E7.62951
G0 F3600 X98.83 Y103.64
G1 F1200 X97.98 Y102.79 E7.65146
G0 F3600 X97.74 Y103.11
G1 F1200 X98.50 Y103.88 E7.67128
G0 F3600 X98.18 Y104.12
G1 F1200 X97.50 Y103.44 E7.68900
G0 F3600 X101.26 Y101.54
G1 F1200 X103.80 Y104.08 E7.75477
G0 F3600 X104.22 Y103.94
G1 F1200 X102.10 Y101.81 E7.80984
G0 F3600 X102.67 Y101.82
G1 F1200 X104.65 Y103.80 E7.86117
G0 F3600 X105.03 Y103.61
G1 F1200 X103.16 Y101.74 E7.90955
G0 F3600 X103.58 Y101.60
G1 F1200 X105.36 Y103.38 E7.95563
G0 F3600 X106.23 Y103.68
G1 F1200 X103.95 Y101.40 E8.01473
G0 F3600 X104.27 Y101.16
G1 F1200 X107.22 Y104.11 E8.09085
G0 F3600 X107.50 Y103.82
G1 F1200 X104.55 Y100.88 E8.16707
G0 F3600 X104.79 Y100.55
G1 F1200 X106.96 Y102.72 E8.22324
G0 F3600 X106.77 Y101.96
G1 F1200 X104.99 Y100.18 E8.26932
G0 F3600 X105.13 Y99.75
G1 F1200 X107.00 Y101.63 E8.31788
G0 F3600 X107.19 Y101.25
G1 F1200 X105.20 Y99.26 E8.36943
G0 F3600 X105.18 Y98.68
G1 F1200 X107.33 Y100.82 E8.42490
G0 F3600 X107.47 Y100.40
G1 F1200 X104.86 Y97.79 E8.49224
G0 F3600 X104.33 Y96.70
G1 F1200 X107.64 Y100.00 E8.57769
G0 F3600 X107.97 Y99.77
G1 F1200 X104.51 Y96.31 E8.66705
G0 F3600 X104.69 Y95.93
G1 F1200 X108.46 Y99.69 E8.76454
G0 F3600 X108.96 Y99.62
G1 F1200 X104.87 Y95.54 E8.87019
G0 F3600 X105.05 Y95.15
G1 F1200 X107.33 Y97.43 E8.92916
G0 F3600 X106.81 Y96.34
G1 F1200 X105.28 Y94.81 E8.96879
G0 F3600 X105.86 Y94.83
G1 F1200 X106.79 Y95.76 E8.99274
G0 F3600 X107.03 Y95.43
G1 F1200 X106.19 Y94.59 E9.01456
G0 F3600 X106.51 Y94.35
G1 F1200 X107.27 Y95.11 E9.03427
G0 F3600 X107.51 Y94.79
G1 F1200 X106.83 Y94.11 E9.05187
G0 F3600 X106.91 Y96.23
G0 X107.97 Y98.32
G0 X108.44 Y98.54
G1 F1200 X109.36 Y99.46 E9.07558
G0 F3600 X109.36 Y98.89
G1 F1200 X109.10 Y98.64 E9.08217
G0 F3600 X101.92 Y105.03
G1 F1200 X102.87 Y105.98 E9.10684
G0 F3600 X102.30 Y105.98
G1 F1200 X102.01 Y105.69 E9.11440
G92 E0
G1 F2400 E-16.5000
T1
G0 F3600 X100.78 Y105.15
;TYPE:WALL-INNER
G1 F2400 E0.00000
G1 F1200 X101.03 Y106.83 E0.03111
G1 X101.36 Y107.12 E0.03929
G1 X103.64 Y107.12 E0.08087
G1 X103.97 Y106.83 E0.08906
G1 X104.22 Y105.15 E0.12017
G1 X105.33 Y104.79 E0.14157
G1 X105.42 Y104.74 E0.14330
G1 X105.58 Y104.62 E0.14700
G1 X106.91 Y105.61 E0.17730
G1 X107.35 Y105.58 E0.18546
G1 X108.96 Y103.97 E0.22709
G1 X108.99 Y103.53 E0.23525
G1 X108.00 Y102.20 E0.26555
G1 X108.12 Y102.04 E0.26926
G1 X108.16 Y101.95 E0.27098
G1 X108.52 Y100.84 E0.29239
G1 X110.21 Y100.60 E0.32350
G1 X110.50 Y100.26 E0.33168
G1 X110.50 Y97.99 E0.37326
G1 X110.21 Y97.65 E0.38144
G1 X108.52 Y97.40 E0.41255
G1 X108.16 Y96.29 E0.43396
G1 X108.00 Y96.04 E0.43939
G1 X108.99 Y94.71 E0.46968
G1 X108.96 Y94.27 E0.47785
G1 X107.35 Y92.66 E0.51947
G1 X106.91 Y92.63 E0.52763
G1 X105.58 Y93.62 E0.55793
G1 X105.42 Y93.50 E0.56160
G1 X105.33 Y93.46 E0.56328
G1 X104.98 Y93.34 E0.57015
G1 X104.56 Y93.52 E0.57853
G1 X102.87 Y97.13 E0.65141
G1 X102.98 Y97.55 E0.65933
G1 X103.61 Y98.01 E0.67357
G1 X103.90 Y98.41 E0.68263
G1 X104.06 Y98.88 E0.69169
G1 X104.06 Y99.36 E0.70057
G1 X103.90 Y99.83 E0.70963
G1 X103.61 Y100.24 E0.71868
G1 X103.21 Y100.53 E0.72774
G1 X102.74 Y100.68 E0.73680
G1 X102.26 Y100.68 E0.74567
G1 X101.79 Y100.53 E0.75474
G1 X101.39 Y100.24 E0.76379
G1 X101.10 Y99.83 E0.77284
G1 X100.94 Y99.37 E0.78185
G1 X100.94 Y98.88 E0.79083
G1 X101.10 Y98.41 E0.79984
G1 X101.39 Y98.01 E0.80889
G1 X102.02 Y97.55 E0.82314
G1 X102.12 Y97.13 E0.83106
G1 X100.44 Y93.52 E0.90394
G1 X100.02 Y93.34 E0.91232
G1 X99.66 Y93.46 E0.91919
G1 X99.58 Y93.50 E0.92087
G1 X99.42 Y93.62 E0.92454
G1 X98.09 Y92.63 E0.95484
G1 X97.65 Y92.66 E0.96300
G1 X96.04 Y94.27 E1.00462
G1 X96.01 Y94.71 E1.01279
G1 X97.00 Y96.04 E1.04309
G1 X96.88 Y96.21 E1.04683
G1 X96.84 Y96.29 E1.04855
G1 X96.47 Y97.40 E1.06994
G1 X94.79 Y97.65 E1.10105
G1 X94.50 Y97.99 E1.10922
G1 X94.50 Y100.26 E1.15080
G1 X94.79 Y100.60 E1.15897
G1 X96.47 Y100.84 E1.19008
G1 X96.84 Y101.95 E1.21147
G1 X96.88 Y102.04 E1.21322
G1 X97.00 Y102.20 E1.21691
G1 X96.01 Y103.53 E1.24724
G1 X96.04 Y103.97 E1.25540
G1 X97.65 Y105.58 E1.29702
G1 X98.09 Y105.61 E1.30518
G1 X99.42 Y104.62 E1.33548
G1 X99.67 Y104.79 E1.34091
G1 X100.78 Y105.15 E1.36232
G0 F3600 X93.10 Y108.52
G1 F1200 X93.10 Y89.72 E1.70623
G1 X111.90 Y89.72 E2.05015
G1 X111.90 Y108.52 E2.39407
G1 X93.10 Y108.52 E2.73798
G0 F3600 X92.70 Y108.92
;TYPE:WALL-OUTER
G1 F1200 X92.70 Y89.32 E3.09654
G1 X112.30 Y89.32 E3.45509
G1 X112.30 Y108.92 E3.81364
G1 X92.70 Y108.92 E4.17219
G0 F3600 X92.91 Y108.62
G0 X97.80 Y105.49
G0 X97.82 Y105.19
G1 F1200 X97.97 Y105.20 E4.17492
G1 X99.42 Y104.13 E4.20786
G1 X99.79 Y104.40 E4.21638
G1 X99.82 Y104.41 E4.21696
G1 X101.14 Y104.84 E4.24234
G1 X101.40 Y106.62 E4.27528
G1 X101.51 Y106.72 E4.27802
G1 X103.49 Y106.72 E4.31415
G1 X103.60 Y106.62 E4.31688
G1 X103.86 Y104.84 E4.34982
G1 X105.18 Y104.41 E4.37521
G1 X105.21 Y104.40 E4.37578
G1 X105.58 Y104.13 E4.38431
G1 X107.03 Y105.20 E4.41724
G1 X107.17 Y105.19 E4.41997
G1 X108.57 Y103.80 E4.45612
G1 X108.58 Y103.65 E4.45885
G1 X107.50 Y102.21 E4.49178
G1 X107.78 Y101.83 E4.50031
G1 X107.79 Y101.80 E4.50088
G1 X108.22 Y100.48 E4.52627
G1 X110.00 Y100.22 E4.55921
G1 X110.10 Y100.11 E4.56194
G1 X110.10 Y98.13 E4.59807
G1 X110.00 Y98.02 E4.60081
G1 X108.22 Y97.76 E4.63375
G1 X107.79 Y96.44 E4.65913
G1 X107.78 Y96.42 E4.65971
G1 X107.50 Y96.04 E4.66823
G1 X108.58 Y94.60 E4.70117
G1 X108.57 Y94.45 E4.70390
G1 X107.17 Y93.05 E4.74004
G1 X107.03 Y93.04 E4.74277
G1 X105.58 Y94.12 E4.77571
G1 X105.21 Y93.84 E4.78422
G1 X105.00 Y93.77 E4.78832
G1 X104.86 Y93.83 E4.79109
G1 X103.30 Y97.17 E4.85856
G1 X103.33 Y97.31 E4.86119
G1 X103.90 Y97.72 E4.87399
G1 X104.26 Y98.22 E4.88534
G1 X104.46 Y98.82 E4.89674
G1 X104.46 Y99.43 E4.90795
G1 X104.26 Y100.02 E4.91935
G1 X103.90 Y100.52 E4.93069
G1 X103.40 Y100.89 E4.94204
G1 X102.81 Y101.08 E4.95344
G1 X102.19 Y101.08 E4.96465
G1 X101.60 Y100.89 E4.97605
G1 X101.10 Y100.52 E4.98739
G1 X100.74 Y100.02 E4.99874
G1 X100.54 Y99.43 E5.01008
G1 X100.54 Y98.81 E5.02142
G1 X100.74 Y98.22 E5.03274
G1 X101.10 Y97.72 E5.04409
G1 X101.67 Y97.31 E5.05689
G1 X101.70 Y97.17 E5.05952
G1 X100.14 Y93.83 E5.12700
G1 X100.00 Y93.77 E5.12977
G1 X99.79 Y93.84 E5.13386
G1 X99.42 Y94.12 E5.14237
G1 X97.97 Y93.04 E5.17531
G1 X97.82 Y93.05 E5.17804
G1 X96.43 Y94.45 E5.21418
G1 X96.42 Y94.60 E5.21692
G1 X97.50 Y96.04 E5.24987
G1 X97.22 Y96.42 E5.25839
G1 X97.21 Y96.44 E5.25897
G1 X96.78 Y97.76 E5.28433
G1 X95.00 Y98.02 E5.31727
G1 X94.90 Y98.13 E5.32000
G1 X94.90 Y100.11 E5.35613
G1 X95.00 Y100.22 E5.35885
G1 X96.78 Y100.48 E5.39179
G1 X97.21 Y101.80 E5.41716
G1 X97.22 Y101.83 E5.41775
G1 X97.50 Y102.21 E5.42627
G1 X96.42 Y103.65 E5.45921
G1 X96.43 Y103.80 E5.46194
G1 X97.82 Y105.19 E5.49808
G0 F3600 X98.11 Y105.75
;TYPE:FILL
G1 F1200 X100.75 Y108.38 E5.56613
G0 F3600 X101.31 Y108.38
G1 F1200 X98.45 Y105.52 E5.64015
G0 F3600 X98.77 Y105.28
G1 F1200 X101.88 Y108.38 E5.72044
G0 F3600 X102.44 Y108.38
G1 F1200 X101.31 Y107.25 E5.74969
G0 F3600 X101.89 Y107.26
G1 F1200 X103.01 Y108.38 E5.77866
G0 F3600 X103.57 Y108.38
G1 F1200 X102.45 Y107.26 E5.80765
G0 F3600 X103.02 Y107.26
G1 F1200 X104.14 Y108.38 E5.83664
G0 F3600 X104.70 Y108.38
G1 F1200 X103.58 Y107.26 E5.86562
G0 F3600 X103.93 Y107.05
G1 F1200 X105.27 Y108.38 E5.90015
G0 F3600 X105.84 Y108.38
G1 F1200 X104.14 Y106.68 E5.94415
G0 F3600 X104.21 Y106.19
G1 F1200 X106.40 Y108.38 E6.00091
G0 F3600 X106.97 Y108.38
G1 F1200 X104.28 Y105.69 E6.07045
G0 F3600 X104.39 Y105.24
G1 F1200 X107.53 Y108.38 E6.15180
G0 F3600 X108.10 Y108.38
G1 F1200 X104.82 Y105.10 E6.23673
G0 F3600 X105.24 Y104.96
G1 F1200 X108.66 Y108.38 E6.32525
G0 F3600 X109.23 Y108.38
G1 F1200 X105.85 Y105.00 E6.41277
G0 F3600 X107.15 Y105.74
G1 F1200 X109.80 Y108.38 E6.48123
G0 F3600 X110.36 Y108.38
G1 F1200 X107.55 Y105.57 E6.55385
G0 F3600 X107.84 Y105.29
G1 F1200 X110.93 Y108.38 E6.63379
G0 F3600 X111.49 Y108.38
G1 F1200 X108.12 Y105.01 E6.72105
G0 F3600 X108.40 Y104.73
G1 F1200 X111.76 Y108.08 E6.80787
G0 F3600 X111.76 Y107.52
G1 F1200 X108.68 Y104.44 E6.88740
G0 F3600 X108.97 Y104.16
G1 F1200 X111.76 Y106.95 E6.95960
G0 F3600 X111.76 Y106.39
G1 F1200 X109.11 Y103.74 E7.02803
G0 F3600 X108.28 Y102.33
G1 F1200 X111.76 Y105.82 E7.11817
G0 F3600 X111.76 Y105.25
G1 F1200 X108.35 Y101.84 E7.20650
G0 F3600 X108.48 Y101.41
G1 F1200 X111.76 Y104.69 E7.29125
G0 F3600 X111.76 Y104.12
G1 F1200 X108.62 Y100.99 E7.37240
G0 F3600 X109.10 Y100.90
G1 F1200 X111.76 Y103.56 E7.44120
G0 F3600 X111.76 Y102.99
G1 F1200 X109.59 Y100.83 E7.49721
G0 F3600 X110.09 Y100.75
G1 F1200 X111.76 Y102.43 E7.54044
G0 F3600 X111.76 Y101.86
G1 F1200 X110.44 Y100.54 E7.57461
G0 F3600 X110.64 Y100.17
G1 F1200 X111.76 Y101.29 E7.60358
G0 F3600 X111.76 Y100.73
G1 F1200 X110.64 Y99.61 E7.63256
G0 F3600 X110.64 Y99.04
G1 F1200 X111.76 Y100.16 E7.66153
G0 F3600 X111.76 Y99.60
G1 F1200 X110.64 Y98.48 E7.69051
G0 F3600 X110.50 Y97.78
G1 F1200 X111.76 Y99.03 E7.72300
G0 F3600 X111.76 Y98.47
G1 F1200 X108.67 Y95.38 E7.80295
G0 F3600 X108.91 Y95.05
G1 F1200 X111.76 Y97.90 E7.87663
G0 F3600 X111.76 Y97.33
