;Generated with Cura_SteamEngine 13.11.2
;Sliced at: Tue 10-12-2013 11:04:29
;Basic settings: Layer height: 0.25 Walls: 0.8 Fill: 100
;Print time: #P_TIME#
;Filament used: #F_AMNT#m #F_WGHT#g
;Filament cost: #F_COST#
G21        ;metric values
G90        ;absolute positioning
M107       ;start with the fan off
G28 X0 Y0  ;move X/Y to min endstops
G28 Z0     ;move Z to min endstops
G1 Z15.0 F9000 ;move the platform down 15mm
T1
G92 E0                  ;zero the extruded length
G1 F200 E10             ;extrude 10mm of feed stock
G92 E0                  ;zero the extruded length again
G1 F200 E-16.5
T0
G92 E0                  ;zero the extruded length
G1 F200 E10              ;extrude 10mm of feed stock
G92 E0                  ;zero the extruded length again
G1 F9000
M117 Printing...

;Layer count: 4
;LAYER:0
M107
G0 F3600 X49.30 Y47.80 Z0.30
;TYPE:SKIRT
G1 F2400 E0.00000
G1 F1200 X51.17 Y45.92 E0.04848
G1 X153.13 Y45.92 E1.91370
G1 X154.31 Y46.41 E1.93698
G1 X155.21 Y47.31 E1.96031
G1 X155.70 Y48.49 E1.98360
G1 X155.70 Y150.45 E3.84882
G1 X153.82 Y152.32 E3.89733
G1 X51.17 Y152.32 E5.77517
G1 X49.30 Y150.45 E5.82366
G1 X49.30 Y47.80 E7.70150
G0 F3600 X53.00 Y49.53
G0 X53.10 Y49.72
;TYPE:WALL-INNER
G1 F1200 X151.90 Y49.72 E9.50890
G1 X151.90 Y148.52 E11.31629
G1 X53.10 Y148.52 E13.12368
G1 X53.10 Y49.72 E14.93108
G0 F3600 X52.70 Y49.32
;TYPE:WALL-OUTER
G1 F1200 X152.30 Y49.32 E16.75310
G1 X152.30 Y148.92 E18.57513
G1 X52.70 Y148.92 E20.39716
G1 X52.70 Y49.32 E22.21919
G0 F3600 X53.24 Y50.13
;TYPE:FILL
G1 F1200 X151.49 Y148.38 E24.76110
G0 F3600 X151.76 Y148.08
G1 F1200 X53.54 Y49.86 E27.30217
G0 F3600 X54.10 Y49.86
G1 F1200 X151.76 Y147.52 E29.82861
G0 F3600 X151.76 Y146.95
G1 F1200 X54.67 Y49.86 E32.34041
G0 F3600 X55.24 Y49.86
G1 F1200 X151.76 Y146.38 E34.83756
G0 F3600 X151.76 Y145.82
G1 F1200 X55.80 Y49.86 E37.32009
G0 F3600 X56.37 Y49.86
G1 F1200 X151.76 Y145.25 E39.78798
G0 F3600 X151.76 Y144.69
G1 F1200 X56.93 Y49.86 E42.24123
G0 F3600 X57.50 Y49.86
G1 F1200 X151.76 Y144.12 E44.67986
G0 F3600 X151.76 Y143.56
G1 F1200 X58.06 Y49.86 E47.10384
G0 F3600 X58.63 Y49.86
G1 F1200 X151.76 Y142.99 E49.51319
G0 F3600 X151.76 Y142.43
G1 F1200 X59.19 Y49.86 E51.90791
G0 F3600 X59.76 Y49.86
G1 F1200 X151.76 Y141.86 E54.28799
G0 F3600 X151.76 Y141.29
G1 F1200 X60.33 Y49.86 E56.65344
G0 F3600 X60.89 Y49.86
G1 F1200 X151.76 Y140.73 E59.00426
G0 F3600 X151.76 Y140.16
G1 F1200 X61.46 Y49.86 E61.34044
G0 F3600 X62.02 Y49.86
G1 F1200 X151.76 Y139.60 E63.66198
G0 F3600 X151.76 Y139.03
G1 F1200 X62.59 Y49.86 E65.96890
G0 F3600 X63.15 Y49.86
G1 F1200 X151.76 Y138.47 E68.26117
G0 F3600 X151.76 Y137.90
G1 F1200 X63.72 Y49.86 E70.53882
G0 F3600 X64.29 Y49.86
G1 F1200 X151.76 Y137.33 E72.80182
G0 F3600 X151.76 Y136.77
G1 F1200 X64.85 Y49.86 E75.05019
G0 F3600 X65.42 Y49.86
G1 F1200 X151.76 Y136.20 E77.28393
G0 F3600 X151.76 Y135.64
G1 F1200 X65.98 Y49.86 E79.50303
G0 F3600 X66.55 Y49.86
G1 F1200 X151.76 Y135.07 E81.70750
G0 F3600 X151.76 Y134.51
G1 F1200 X67.11 Y49.86 E83.89732
G0 F3600 X67.68 Y49.86
G1 F1200 X151.76 Y133.94 E86.07252
G0 F3600 X151.76 Y133.38
G1 F1200 X68.25 Y49.86 E88.23308
G0 F3600 X68.81 Y49.86
G1 F1200 X151.76 Y132.81 E90.37900
G0 F3600 X151.76 Y132.24
G1 F1200 X69.38 Y49.86 E92.51030
G0 F3600 X69.94 Y49.86
G1 F1200 X151.76 Y131.68 E94.62696
G0 F3600 X151.76 Y131.11
G1 F1200 X70.51 Y49.86 E96.72898
G0 F3600 X71.07 Y49.86
G1 F1200 X151.76 Y130.55 E98.81637
G0 F3600 X151.76 Y129.98
G1 F1200 X71.64 Y49.86 E100.88913
G0 F3600 X72.21 Y49.86
G1 F1200 X151.76 Y129.41 E102.94724
G0 F3600 X151.76 Y128.85
G1 F1200 X72.77 Y49.86 E104.99073
G0 F3600 X73.34 Y49.86
G1 F1200 X151.76 Y128.28 E107.01959
G0 F3600 X151.76 Y127.72
G1 F1200 X73.90 Y49.86 E109.03380
G0 F3600 X74.47 Y49.86
G1 F1200 X151.76 Y127.15 E111.03338
G0 F3600 X151.76 Y126.59
G1 F1200 X75.03 Y49.86 E113.01832
G0 F3600 X75.60 Y49.86
G1 F1200 X151.76 Y126.02 E114.98864
G0 F3600 X151.76 Y125.46
G1 F1200 X76.17 Y49.86 E116.94430
G0 F3600 X76.73 Y49.86
G1 F1200 X151.76 Y124.89 E118.88534
G0 F3600 X151.76 Y124.32
G1 F1200 X77.30 Y49.86 E120.81175
G0 F3600 X77.86 Y49.86
G1 F1200 X151.76 Y123.76 E122.72351
G0 F3600 X151.76 Y123.19
G1 F1200 X78.43 Y49.86 E124.62065
G0 F3600 X78.99 Y49.86
G1 F1200 X151.76 Y122.63 E126.50316
G0 F3600 X151.76 Y122.06
G1 F1200 X79.56 Y49.86 E128.37102
G0 F3600 X80.12 Y49.86
G1 F1200 X151.76 Y121.50 E130.22425
G0 F3600 X151.76 Y120.93
G1 F1200 X80.69 Y49.86 E132.06285
G0 F3600 X81.26 Y49.86
G1 F1200 X151.76 Y120.36 E133.88681
G0 F3600 X151.76 Y119.80
G1 F1200 X81.82 Y49.86 E135.69614
G0 F3600 X82.39 Y49.86
G1 F1200 X151.76 Y119.23 E137.49084
G0 F3600 X151.76 Y118.67
G1 F1200 X82.95 Y49.86 E139.27090
G0 F3600 X83.52 Y49.86
G1 F1200 X151.76 Y118.10 E141.03632
G0 F3600 X151.76 Y117.54
G1 F1200 X84.08 Y49.86 E142.78711
G0 F3600 X84.65 Y49.86
G1 F1200 X151.76 Y116.97 E144.52326
G0 F3600 X151.76 Y116.40
G1 F1200 X85.22 Y49.86 E146.24479
G0 F3600 X85.78 Y49.86
G1 F1200 X151.76 Y115.84 E147.95167
G0 F3600 X151.76 Y115.27
G1 F1200 X86.35 Y49.86 E149.64392
G0 F3600 X86.91 Y49.86
G1 F1200 X151.76 Y114.71 E151.32153
G0 F3600 X151.76 Y114.14
G1 F1200 X87.48 Y49.86 E152.98450
G0 F3600 X88.04 Y49.86
G1 F1200 X151.76 Y113.58 E154.63285
G0 F3600 X151.76 Y113.01
G1 F1200 X88.61 Y49.86 E156.26656
G0 F3600 X89.18 Y49.86
G1 F1200 X151.76 Y112.44 E157.88563
G0 F3600 X151.76 Y111.88
G1 F1200 X89.74 Y49.86 E159.49008
G0 F3600 X90.31 Y49.86
G1 F1200 X151.76 Y111.31 E161.07988
G0 F3600 X151.76 Y110.75
G1 F1200 X90.87 Y49.86 E162.65505
G0 F3600 X91.44 Y49.86
G1 F1200 X151.76 Y110.18 E164.21560
G0 F3600 X151.76 Y109.62
G1 F1200 X92.00 Y49.86 E165.76150
G0 F3600 X92.57 Y49.86
G1 F1200 X151.76 Y109.05 E167.29277
G0 F3600 X151.76 Y108.49
G1 F1200 X93.14 Y49.86 E168.80940
G0 F3600 X93.70 Y49.86
G1 F1200 X151.76 Y107.92 E170.31140
G0 F3600 X151.76 Y107.35
G1 F1200 X94.27 Y49.86 E171.79877
G0 F3600 X94.83 Y49.86
G1 F1200 X151.76 Y106.79 E173.27149
G0 F3600 X151.76 Y106.22
G1 F1200 X95.40 Y49.86 E174.72959
G0 F3600 X95.96 Y49.86
G1 F1200 X151.76 Y105.66 E176.17305
G0 F3600 X151.76 Y105.09
G1 F1200 X96.53 Y49.86 E177.60187
G0 F3600 X97.10 Y49.86
G1 F1200 X151.76 Y104.53 E179.01606
G0 F3600 X151.76 Y103.96
G1 F1200 X97.66 Y49.86 E180.41561
G0 F3600 X98.23 Y49.86
G1 F1200 X151.76 Y103.39 E181.80053
G0 F3600 X151.76 Y102.83
G1 F1200 X98.79 Y49.86 E183.17082
G0 F3600 X99.36 Y49.86
G1 F1200 X151.76 Y102.26 E184.52646
G0 F3600 X151.76 Y101.70
G1 F1200 X99.92 Y49.86 E185.86748
G0 F3600 X100.49 Y49.86
G1 F1200 X151.76 Y101.13 E187.19386
G0 F3600 X151.76 Y100.57
G1 F1200 X101.06 Y49.86 E188.50561
G0 F3600 X101.62 Y49.86
G1 F1200 X151.76 Y100.00 E189.80272
G0 F3600 X151.76 Y99.43
G1 F1200 X102.19 Y49.86 E191.08520
G0 F3600 X102.75 Y49.86
G1 F1200 X151.76 Y98.87 E192.35304
G0 F3600 X151.76 Y98.30
G1 F1200 X103.32 Y49.86 E193.60625
G0 F3600 X103.88 Y49.86
G1 F1200 X151.76 Y97.74 E194.84483
G0 F3600 X151.76 Y97.17
G1 F1200 X104.45 Y49.86 E196.06877
G0 F3600 X105.01 Y49.86
G1 F1200 X151.76 Y96.61 E197.27807
G0 F3600 X151.76 Y96.04
G1 F1200 X105.58 Y49.86 E198.47274
G0 F3600 X106.15 Y49.86
G1 F1200 X151.76 Y95.47 E199.65277
G0 F3600 X151.76 Y94.91
G1 F1200 X106.71 Y49.86 E200.81816
G0 F3600 X107.28 Y49.86
G1 F1200 X151.76 Y94.34 E201.96893
G0 F3600 X151.76 Y93.78
G1 F1200 X107.84 Y49.86 E203.10506
G0 F3600 X108.41 Y49.86
G1 F1200 X151.76 Y93.21 E204.22655
G0 F3600 X151.76 Y92.64
G1 F1200 X108.97 Y49.86 E205.33340
G0 F3600 X109.54 Y49.86
G1 F1200 X151.76 Y92.08 E206.42563
G0 F3600 X151.76 Y91.51
G1 F1200 X110.11 Y49.86 E207.50322
G0 F3600 X110.67 Y49.86
G1 F1200 X151.76 Y90.95 E208.56617
G0 F3600 X151.76 Y90.38
G1 F1200 X111.24 Y49.86 E209.61450
G0 F3600 X111.80 Y49.86
G1 F1200 X151.76 Y89.82 E210.64818
G0 F3600 X151.76 Y89.25
G1 F1200 X112.37 Y49.86 E211.66723
G0 F3600 X112.93 Y49.86
G1 F1200 X151.76 Y88.69 E212.67166
G0 F3600 X151.76 Y88.12
G1 F1200 X113.50 Y49.86 E213.66144
G0 F3600 X114.07 Y49.86
G1 F1200 X151.76 Y87.55 E214.63659
G0 F3600 X151.76 Y86.99
G1 F1200 X114.63 Y49.86 E215.59709
G0 F3600 X115.20 Y49.86
G1 F1200 X151.76 Y86.42 E216.54297
G0 F3600 X151.76 Y85.86
G1 F1200 X115.76 Y49.86 E217.47422
G0 F3600 X116.33 Y49.86
G1 F1200 X151.76 Y85.29 E218.39082
G0 F3600 X151.76 Y84.73
G1 F1200 X116.89 Y49.86 E219.29280
G0 F3600 X117.46 Y49.86
G1 F1200 X151.76 Y84.16 E220.18013
G0 F3600 X151.76 Y83.59
G1 F1200 X118.03 Y49.86 E221.05283
G0 F3600 X118.59 Y49.86
G1 F1200 X151.76 Y83.03 E221.91090
G0 F3600 X151.76 Y82.46
G1 F1200 X119.16 Y49.86 E222.75433
G0 F3600 X119.72 Y49.86
G1 F1200 X151.76 Y81.90 E223.58313
G0 F3600 X151.76 Y81.33
G1 F1200 X120.29 Y49.86 E224.39730
G0 F3600 X120.86 Y49.86
G1 F1200 X151.76 Y80.77 E225.19682
G0 F3600 X151.76 Y80.20
G1 F1200 X121.42 Y49.86 E225.98172
G0 F3600 X121.99 Y49.86
G1 F1200 X151.76 Y79.64 E226.75198
G0 F3600 X151.76 Y79.07
G1 F1200 X122.55 Y49.86 E227.50761
G0 F3600 X123.12 Y49.86
G1 F1200 X151.76 Y78.50 E228.24860
G0 F3600 X151.76 Y77.94
G1 F1200 X123.68 Y49.86 E228.97496
G0 F3600 X124.25 Y49.86
G1 F1200 X151.76 Y77.37 E229.68668
G0 F3600 X151.76 Y76.81
G1 F1200 X124.81 Y49.86 E230.38377
G0 F3600 X125.38 Y49.86
G1 F1200 X151.76 Y76.24 E231.06622
G0 F3600 X151.76 Y75.68
G1 F1200 X125.95 Y49.86 E231.73404
G0 F3600 X126.51 Y49.86
G1 F1200 X151.76 Y75.11 E232.38721
G0 F3600 X151.76 Y74.54
G1 F1200 X127.08 Y49.86 E233.02575
G0 F3600 X127.64 Y49.86
G1 F1200 X151.76 Y73.98 E233.64967
G0 F3600 X151.76 Y73.41
G1 F1200 X128.21 Y49.86 E234.25894
G0 F3600 X128.77 Y49.86
G1 F1200 X151.76 Y72.85 E234.85358
G0 F3600 X151.76 Y72.28
G1 F1200 X129.34 Y49.86 E235.43359
G0 F3600 X129.91 Y49.86
G1 F1200 X151.76 Y71.71 E235.99896
G0 F3600 X151.76 Y71.15
G1 F1200 X130.47 Y49.86 E236.54970
G0 F3600 X131.04 Y49.86
G1 F1200 X151.76 Y70.58 E237.08581
G0 F3600 X151.76 Y70.02
G1 F1200 X131.60 Y49.86 E237.60727
G0 F3600 X132.17 Y49.86
G1 F1200 X151.76 Y69.45 E238.11411
G0 F3600 X151.76 Y68.89
G1 F1200 X132.73 Y49.86 E238.60632
G0 F3600 X133.30 Y49.86
G1 F1200 X151.76 Y68.32 E239.08388
G0 F3600 X151.76 Y67.75
G1 F1200 X133.87 Y49.86 E239.54681
G0 F3600 X134.43 Y49.86
G1 F1200 X151.76 Y67.19 E239.99510
G0 F3600 X151.76 Y66.62
G1 F1200 X135.00 Y49.86 E240.42876
G0 F3600 X135.56 Y49.86
G1 F1200 X151.76 Y66.06 E240.84779
G0 F3600 X151.76 Y65.49
G1 F1200 X136.13 Y49.86 E241.25218
G0 F3600 X136.69 Y49.86
G1 F1200 X151.76 Y64.93 E241.64194
G0 F3600 X151.76 Y64.36
G1 F1200 X137.26 Y49.86 E242.01705
G0 F3600 X137.82 Y49.86
G1 F1200 X151.76 Y63.79 E242.37754
G0 F3600 X151.76 Y63.23
G1 F1200 X138.39 Y49.86 E242.72339
G0 F3600 X138.96 Y49.86
G1 F1200 X151.76 Y62.66 E243.05460
G0 F3600 X151.76 Y62.10
G1 F1200 X139.52 Y49.86 E243.37118
G0 F3600 X140.09 Y49.86
G1 F1200 X151.76 Y61.53 E243.67313
G0 F3600 X151.76 Y60.97
G1 F1200 X140.65 Y49.86 E243.96044
G0 F3600 X141.22 Y49.86
G1 F1200 X151.76 Y60.40 E244.23312
G0 F3600 X151.76 Y59.84
G1 F1200 X141.79 Y49.86 E244.49117
G0 F3600 X142.35 Y49.86
G1 F1200 X151.76 Y59.27 E244.73458
G0 F3600 X151.76 Y58.70
G1 F1200 X142.92 Y49.86 E244.96335
G0 F3600 X143.48 Y49.86
G1 F1200 X151.76 Y58.14 E245.17750
G0 F3600 X151.76 Y57.57
G1 F1200 X144.05 Y49.86 E245.37700
G0 F3600 X144.61 Y49.86
G1 F1200 X151.76 Y57.01 E245.56187
G0 F3600 X151.76 Y56.44
G1 F1200 X145.18 Y49.86 E245.73210
G0 F3600 X145.74 Y49.86
G1 F1200 X151.76 Y55.88 E245.88771
G0 F3600 X151.76 Y55.31
G1 F1200 X146.31 Y49.86 E246.02868
G0 F3600 X146.88 Y49.86
G1 F1200 X151.76 Y54.74 E246.15500
G0 F3600 X151.76 Y54.18
G1 F1200 X147.44 Y49.86 E246.26670
G0 F3600 X148.01 Y49.86
G1 F1200 X151.76 Y53.61 E246.36375
G0 F3600 X151.76 Y53.05
G1 F1200 X148.57 Y49.86 E246.44618
G0 F3600 X149.14 Y49.86
G1 F1200 X151.76 Y52.48 E246.51397
G0 F3600 X151.76 Y51.92
G1 F1200 X149.71 Y49.86 E246.56713
G0 F3600 X150.27 Y49.86
G1 F1200 X151.76 Y51.35 E246.60565
G0 F3600 X151.76 Y50.78
G1 F1200 X150.84 Y49.86 E246.62954
G0 F3600 X151.40 Y49.86
G1 F1200 X151.76 Y50.22 E246.63879
G0 F3600 X150.93 Y148.38
G1 F1200 X53.24 Y50.69 E249.16606
G0 F3600 X53.24 Y51.26
G1 F1200 X150.36 Y148.38 E251.67871
G0 F3600 X149.79 Y148.38
G1 F1200 X53.24 Y51.82 E254.17673
G0 F3600 X53.24 Y52.39
G1 F1200 X149.23 Y148.38 E256.66009
G0 F3600 X148.66 Y148.38
G1 F1200 X53.24 Y52.96 E259.12885
G0 F3600 X53.24 Y53.52
G1 F1200 X148.10 Y148.38 E261.58295
G0 F3600 X147.53 Y148.38
G1 F1200 X53.24 Y54.09 E264.02242
G0 F3600 X53.24 Y54.65
G1 F1200 X146.97 Y148.38 E266.44727
G0 F3600 X146.40 Y148.38
G1 F1200 X53.24 Y55.22 E268.85747
G0 F3600 X53.24 Y55.78
G1 F1200 X145.84 Y148.38 E271.25304
G0 F3600 X145.27 Y148.38
G1 F1200 X53.24 Y56.35 E273.63397
G0 F3600 X53.24 Y56.92
G1 F1200 X144.70 Y148.38 E276.00027
G0 F3600 X144.14 Y148.38
G1 F1200 X53.24 Y57.48 E278.35193
G0 F3600 X53.24 Y58.05
G1 F1200 X143.57 Y148.38 E280.68896
G0 F3600 X143.01 Y148.38
G1 F1200 X53.24 Y58.61 E283.01136
G0 F3600 X53.24 Y59.18
G1 F1200 X142.44 Y148.38 E285.31912
G0 F3600 X141.88 Y148.38
G1 F1200 X53.24 Y59.74 E287.61225
G0 F3600 X53.24 Y60.31
G1 F1200 X141.31 Y148.38 E289.89075
G0 F3600 X140.74 Y148.38
G1 F1200 X53.24 Y60.88 E292.15460
G0 F3600 X53.24 Y61.44
G1 F1200 X140.18 Y148.38 E294.40381
G0 F3600 X139.61 Y148.38
G1 F1200 X53.24 Y62.01 E296.63841
G0 F3600 X53.24 Y62.57
G1 F1200 X139.05 Y148.38 E298.85836
G0 F3600 X138.48 Y148.38
G1 F1200 X53.24 Y63.14 E301.06367
G0 F3600 X53.24 Y63.70
G1 F1200 X137.92 Y148.38 E303.25436
G0 F3600 X137.35 Y148.38
G1 F1200 X53.24 Y64.27 E305.43041
G0 F3600 X53.24 Y64.83
G1 F1200 X136.78 Y148.38 E307.59181
G0 F3600 X136.22 Y148.38
G1 F1200 X53.24 Y65.40 E309.73859
G0 F3600 X53.24 Y65.97
G1 F1200 X135.65 Y148.38 E311.87074
G0 F3600 X135.09 Y148.38
G1 F1200 X53.24 Y66.53 E313.98824
G0 F3600 X53.24 Y67.10
G1 F1200 X134.52 Y148.38 E316.09111
G0 F3600 X133.96 Y148.38
G1 F1200 X53.24 Y67.66 E318.17936
G0 F3600 X53.24 Y68.23
G1 F1200 X133.39 Y148.38 E320.25296
G0 F3600 X132.82 Y148.38
G1 F1200 X53.24 Y68.79 E322.31193
G0 F3600 X53.24 Y69.36
G1 F1200 X132.26 Y148.38 E324.35627
G0 F3600 X131.69 Y148.38
G1 F1200 X53.24 Y69.93 E326.38596
G0 F3600 X53.24 Y70.49
G1 F1200 X131.13 Y148.38 E328.40103
G0 F3600 X130.56 Y148.38
G1 F1200 X53.24 Y71.06 E330.40147
G0 F3600 X53.24 Y71.62
G1 F1200 X130.00 Y148.38 E332.38726
G0 F3600 X129.43 Y148.38
G1 F1200 X53.24 Y72.19 E334.35841
G0 F3600 X53.24 Y72.75
G1 F1200 X128.87 Y148.38 E336.31495
G0 F3600 X128.30 Y148.38
G1 F1200 X53.24 Y73.32 E338.25684
G0 F3600 X53.24 Y73.89
G1 F1200 X127.73 Y148.38 E340.18409
G0 F3600 X127.17 Y148.38
G1 F1200 X53.24 Y74.45 E342.09672
G0 F3600 X53.24 Y75.02
G1 F1200 X126.60 Y148.38 E343.99471
G0 F3600 X126.04 Y148.38
G1 F1200 X53.24 Y75.58 E345.87806
G0 F3600 X53.24 Y76.15
G1 F1200 X125.47 Y148.38 E347.74677
G0 F3600 X124.90 Y148.38
G1 F1200 X53.24 Y76.71 E349.60086
G0 F3600 X53.24 Y77.28
G1 F1200 X124.34 Y148.38 E351.44030
G0 F3600 X123.77 Y148.38
G1 F1200 X53.24 Y77.85 E353.26512
G0 F3600 X53.24 Y78.41
G1 F1200 X123.21 Y148.38 E355.07530
G0 F3600 X122.64 Y148.38
G1 F1200 X53.24 Y78.98 E356.87084
G0 F3600 X53.24 Y79.54
G1 F1200 X122.08 Y148.38 E358.65175
G0 F3600 X121.51 Y148.38
G1 F1200 X53.24 Y80.11 E360.41803
G0 F3600 X53.24 Y80.67
G1 F1200 X120.94 Y148.38 E362.16967
G0 F3600 X120.38 Y148.38
G1 F1200 X53.24 Y81.24 E363.90666
G0 F3600 X53.24 Y81.81
G1 F1200 X119.81 Y148.38 E365.62904
G0 F3600 X119.25 Y148.38
G1 F1200 X53.24 Y82.37 E367.33677
G0 F3600 X53.24 Y82.94
G1 F1200 X118.68 Y148.38 E369.02987
G0 F3600 X118.12 Y148.38
G1 F1200 X53.24 Y83.50 E370.70834
G0 F3600 X53.24 Y84.07
G1 F1200 X117.55 Y148.38 E372.37217
G0 F3600 X116.99 Y148.38
G1 F1200 X53.24 Y84.63 E374.02136
G0 F3600 X53.24 Y85.20
G1 F1200 X116.42 Y148.38 E375.65592
G0 F3600 X115.85 Y148.38
G1 F1200 X53.24 Y85.76 E377.27585
G0 F3600 X53.24 Y86.33
G1 F1200 X115.29 Y148.38 E378.88114
G0 F3600 X114.72 Y148.38
G1 F1200 X53.24 Y86.90 E380.47179
G0 F3600 X53.24 Y87.46
G1 F1200 X114.16 Y148.38 E382.04782
G0 F3600 X113.59 Y148.38
G1 F1200 X53.24 Y88.03 E383.60920
G0 F3600 X53.24 Y88.59
G1 F1200 X113.03 Y148.38 E385.15596
G0 F3600 X112.46 Y148.38
G1 F1200 X53.24 Y89.16 E386.68808
G0 F3600 X53.24 Y89.72
G1 F1200 X111.89 Y148.38 E388.20556
G0 F3600 X111.33 Y148.38
G1 F1200 X53.24 Y90.29 E389.70841
