;Generated with Cura_SteamEngine 13.11.2
;Sliced at: Sun 08-12-2013 22:28:45
;Basic settings: Layer height: 0.25 Walls: 0.8 Fill: 100
;Print time: #P_TIME#
;Filament used: #F_AMNT#m #F_WGHT#g
;Filament cost: #F_COST#
G21        ;metric values
G90        ;absolute positioning
M107       ;start with the fan off
G28 X0 Y0  ;move X/Y to min endstops
G28 Z0     ;move Z to min endstops
G1 Z15.0 F9000 ;move the platform down 15mm
;T1
;G92 E0                  ;zero the extruded length
;G1 F200 E10             ;extrude 10mm of feed stock
;G92 E0                  ;zero the extruded length again
;G1 F200 E-16.5
;T0
G92 E0                  ;zero the extruded length
G1 F200 E10              ;extrude 10mm of feed stock
G92 E0                  ;zero the extruded length again
G1 F9000
M117 Printing...

;Layer count: 12
;LAYER:0
M107
G0 F3600 X93.50 Y90.84 Z0.30
;TYPE:SKIRT
G1 F2400 E0.00000
G1 F1200 X95.84 Y88.50 E0.06062
G1 X108.29 Y88.50 E0.28839
G1 X109.76 Y89.11 E0.31749
G1 X110.89 Y90.23 E0.34663
G1 X111.50 Y91.70 E0.37574
G1 X111.50 Y104.15 E0.60351
G1 X109.16 Y106.50 E0.66415
G1 X95.84 Y106.50 E0.90769
G1 X93.50 Y104.15 E0.96832
G1 X93.50 Y90.84 E1.21186
G0 F3600 X93.90 Y91.01
G1 F1200 X96.01 Y88.90 E1.26640
G1 X108.21 Y88.90 E1.48971
G1 X109.54 Y89.45 E1.51590
G1 X110.55 Y90.46 E1.54213
G1 X111.10 Y91.78 E1.56833
G1 X111.10 Y103.99 E1.79163
G1 X108.99 Y106.10 E1.84620
G1 X96.01 Y106.10 E2.08370
G1 X93.90 Y103.99 E2.13825
G1 X93.90 Y91.01 E2.37575
G0 F3600 X94.30 Y91.17
G1 F1200 X96.17 Y89.30 E2.42423
G1 X108.14 Y89.30 E2.64304
G1 X109.31 Y89.79 E2.66632
G1 X110.21 Y90.69 E2.68966
G1 X110.70 Y91.86 E2.71294
G1 X110.70 Y103.82 E2.93175
G1 X108.82 Y105.70 E2.98026
G1 X96.17 Y105.70 E3.21169
G1 X94.30 Y103.82 E3.26018
G1 X94.30 Y91.17 E3.49161
G0 F3600 X98.00 Y92.91
G0 X98.10 Y93.10
;TYPE:WALL-INNER
G1 F1200 X106.90 Y93.10 E3.65259
G1 X106.90 Y101.90 E3.81358
G1 X98.10 Y101.90 E3.97456
G1 X98.10 Y93.10 E4.13554
G0 F3600 X97.70 Y92.70
;TYPE:WALL-OUTER
G1 F1200 X107.30 Y92.70 E4.31116
G1 X107.30 Y102.30 E4.48678
G1 X97.70 Y102.30 E4.66239
G1 X97.70 Y92.70 E4.83801
G0 F3600 X98.24 Y93.43
;TYPE:FILL
G1 F1200 X106.57 Y101.76 E5.05345
G0 F3600 X106.76 Y101.39
G1 F1200 X98.61 Y93.24 E5.26419
G0 F3600 X99.18 Y93.24
G1 F1200 X106.76 Y100.82 E5.46031
G0 F3600 X106.76 Y100.25
G1 F1200 X99.74 Y93.24 E5.64179
G0 F3600 X100.31 Y93.24
G1 F1200 X106.76 Y99.69 E5.80863
G0 F3600 X106.76 Y99.12
G1 F1200 X100.88 Y93.24 E5.96084
G0 F3600 X101.44 Y93.24
G1 F1200 X106.76 Y98.56 E6.09842
G0 F3600 X106.76 Y97.99
G1 F1200 X102.01 Y93.24 E6.22136
G0 F3600 X102.57 Y93.24
G1 F1200 X106.76 Y97.43 E6.32967
G0 F3600 X106.76 Y96.86
G1 F1200 X103.14 Y93.24 E6.42335
G0 F3600 X103.70 Y93.24
G1 F1200 X106.76 Y96.29 E6.50238
G0 F3600 X106.76 Y95.73
G1 F1200 X104.27 Y93.24 E6.56679
G0 F3600 X104.83 Y93.24
G1 F1200 X106.76 Y95.16 E6.61657
G0 F3600 X106.76 Y94.60
G1 F1200 X105.40 Y93.24 E6.65170
G0 F3600 X105.97 Y93.24
G1 F1200 X106.76 Y94.03 E6.67219
G0 F3600 X106.76 Y93.47
G1 F1200 X106.53 Y93.24 E6.67806
G0 F3600 X98.24 Y94.00
G1 F1200 X106.00 Y101.76 E6.87886
G0 F3600 X105.43 Y101.76
G1 F1200 X98.24 Y94.56 E7.06502
G0 F3600 X98.24 Y95.13
G1 F1200 X104.87 Y101.76 E7.23656
G0 F3600 X104.30 Y101.76
G1 F1200 X98.24 Y95.69 E7.39345
G0 F3600 X98.24 Y96.26
G1 F1200 X103.74 Y101.76 E7.53572
G0 F3600 X103.17 Y101.76
G1 F1200 X98.24 Y96.82 E7.66335
G0 F3600 X98.24 Y97.39
G1 F1200 X102.61 Y101.76 E7.77634
G0 F3600 X102.04 Y101.76
G1 F1200 X98.24 Y97.96 E7.87470
G0 F3600 X98.24 Y98.52
G1 F1200 X101.47 Y101.76 E7.95842
G0 F3600 X100.91 Y101.76
G1 F1200 X98.24 Y99.09 E8.02750
G0 F3600 X98.24 Y99.65
G1 F1200 X100.34 Y101.76 E8.08196
G0 F3600 X99.78 Y101.76
G1 F1200 X98.24 Y100.22 E8.12177
G0 F3600 X98.24 Y100.79
G1 F1200 X99.21 Y101.76 E8.14694
G0 F3600 X98.65 Y101.76
G1 F1200 X98.24 Y101.35 E8.15749
;LAYER:1
M106 S255
G0 F9000 X98.10 Y101.90 Z0.55
;TYPE:WALL-INNER
G1 F1620 X98.10 Y93.10 E8.29164
G1 X106.90 Y93.10 E8.42579
G1 X106.90 Y101.90 E8.55994
G1 X98.10 Y101.90 E8.69409
G0 F9000 X97.70 Y102.30
;TYPE:WALL-OUTER
G1 F1620 X97.70 Y92.70 E8.84044
G1 X107.30 Y92.70 E8.98679
G1 X107.30 Y102.30 E9.13314
G1 X97.70 Y102.30 E9.27948
G0 F9000 X98.24 Y101.72
;TYPE:FILL
G1 F1620 X106.73 Y93.24 E9.46238
G0 F9000 X106.76 Y93.78
G1 F1620 X98.78 Y101.76 E9.63448
G0 F9000 X99.34 Y101.76
G1 F1620 X106.76 Y94.34 E9.79437
G0 F9000 X106.76 Y94.91
G1 F1620 X99.91 Y101.76 E9.94208
G0 F9000 X100.47 Y101.76
G1 F1620 X106.76 Y95.47 E10.07759
G0 F9000 X106.76 Y96.04
G1 F1620 X101.04 Y101.76 E10.20090
G0 F9000 X101.60 Y101.76
G1 F1620 X106.76 Y96.60 E10.31202
G0 F9000 X106.76 Y97.17
G1 F1620 X102.17 Y101.76 E10.41095
G0 F9000 X102.74 Y101.76
G1 F1620 X106.76 Y97.74 E10.49767
G0 F9000 X106.76 Y98.30
G1 F1620 X103.30 Y101.76 E10.57221
G0 F9000 X103.87 Y101.76
G1 F1620 X106.76 Y98.87 E10.63455
G0 F9000 X106.76 Y99.43
G1 F1620 X104.43 Y101.76 E10.68468
G0 F9000 X105.00 Y101.76
G1 F1620 X106.76 Y100.00 E10.72262
G0 F9000 X106.76 Y100.56
G1 F1620 X105.56 Y101.76 E10.74838
G0 F9000 X106.13 Y101.76
G1 F1620 X106.76 Y101.13 E10.76193
G0 F9000 X106.76 Y101.70
G1 F1620 X106.70 Y101.76 E10.76327
G0 F9000 X98.24 Y101.16
G1 F1620 X106.17 Y93.24 E10.93412
G0 F9000 X105.60 Y93.24
G1 F1620 X98.24 Y100.60 E11.09276
G0 F9000 X98.24 Y100.03
G1 F1620 X105.03 Y93.24 E11.23921
G0 F9000 X104.47 Y93.24
G1 F1620 X98.24 Y99.47 E11.37346
G0 F9000 X98.24 Y98.90
G1 F1620 X103.90 Y93.24 E11.49552
G0 F9000 X103.34 Y93.24
G1 F1620 X98.24 Y98.33 E11.60538
G0 F9000 X98.24 Y97.77
G1 F1620 X102.77 Y93.24 E11.70304
G0 F9000 X102.21 Y93.24
G1 F1620 X98.24 Y97.20 E11.78854
G0 F9000 X98.24 Y96.64
G1 F1620 X101.64 Y93.24 E11.86183
G0 F9000 X101.07 Y93.24
G1 F1620 X98.24 Y96.07 E11.92292
G0 F9000 X98.24 Y95.51
G1 F1620 X100.51 Y93.24 E11.97183
G0 F9000 X99.94 Y93.24
G1 F1620 X98.24 Y94.94 E12.00854
G0 F9000 X98.24 Y94.38
G1 F1620 X99.38 Y93.24 E12.03305
G0 F9000 X98.81 Y93.24
G1 F1620 X98.24 Y93.81 E12.04537
;LAYER:2
G0 F9000 X98.10 Y93.10 Z0.80
;TYPE:WALL-INNER
G1 F2100 X106.90 Y93.10 E12.17952
G1 X106.90 Y101.90 E12.31367
G1 X98.10 Y101.90 E12.44782
G1 X98.10 Y93.10 E12.58198
G0 F9000 X97.70 Y92.70
;TYPE:WALL-OUTER
G1 F2100 X107.30 Y92.70 E12.72832
G1 X107.30 Y102.30 E12.87467
G1 X97.70 Y102.30 E13.02102
G1 X97.70 Y92.70 E13.16737
G0 F9000 X98.24 Y93.43
;TYPE:FILL
G1 F2100 X106.57 Y101.76 E13.34690
G0 F9000 X106.76 Y101.39
G1 F2100 X98.61 Y93.24 E13.52252
G0 F9000 X99.18 Y93.24
G1 F2100 X106.76 Y100.82 E13.68595
G0 F9000 X106.76 Y100.25
G1 F2100 X99.74 Y93.24 E13.83719
G0 F9000 X100.31 Y93.24
G1 F2100 X106.76 Y99.69 E13.97622
G0 F9000 X106.76 Y99.12
G1 F2100 X100.88 Y93.24 E14.10306
G0 F9000 X101.44 Y93.24
G1 F2100 X106.76 Y98.56 E14.21771
G0 F9000 X106.76 Y97.99
G1 F2100 X102.01 Y93.24 E14.32016
G0 F9000 X102.57 Y93.24
G1 F2100 X106.76 Y97.43 E14.41042
G0 F9000 X106.76 Y96.86
G1 F2100 X103.14 Y93.24 E14.48848
G0 F9000 X103.70 Y93.24
G1 F2100 X106.76 Y96.29 E14.55435
G0 F9000 X106.76 Y95.73
G1 F2100 X104.27 Y93.24 E14.60802
G0 F9000 X104.83 Y93.24
G1 F2100 X106.76 Y95.16 E14.64950
G0 F9000 X106.76 Y94.60
G1 F2100 X105.40 Y93.24 E14.67877
G0 F9000 X105.97 Y93.24
G1 F2100 X106.76 Y94.03 E14.69585
G0 F9000 X106.76 Y93.47
G1 F2100 X106.53 Y93.24 E14.70074
G0 F9000 X98.24 Y94.00
G1 F2100 X106.00 Y101.76 E14.86807
G0 F9000 X105.43 Y101.76
G1 F2100 X98.24 Y94.56 E15.02321
G0 F9000 X98.24 Y95.13
G1 F2100 X104.87 Y101.76 E15.16616
G0 F9000 X104.30 Y101.76
G1 F2100 X98.24 Y95.69 E15.29690
G0 F9000 X98.24 Y96.26
G1 F2100 X103.74 Y101.76 E15.41546
G0 F9000 X103.17 Y101.76
G1 F2100 X98.24 Y96.82 E15.52182
G0 F9000 X98.24 Y97.39
G1 F2100 X102.61 Y101.76 E15.61598
G0 F9000 X102.04 Y101.76
G1 F2100 X98.24 Y97.96 E15.69795
G0 F9000 X98.24 Y98.52
G1 F2100 X101.47 Y101.76 E15.76771
G0 F9000 X100.91 Y101.76
G1 F2100 X98.24 Y99.09 E15.82527
G0 F9000 X98.24 Y99.65
G1 F2100 X100.34 Y101.76 E15.87066
G0 F9000 X99.78 Y101.76
G1 F2100 X98.24 Y100.22 E15.90383
G0 F9000 X98.24 Y100.79
G1 F2100 X99.21 Y101.76 E15.92481
G0 F9000 X98.65 Y101.76
G1 F2100 X98.24 Y101.35 E15.93360
;LAYER:3
G0 F9000 X98.10 Y101.90 Z1.05
;TYPE:WALL-INNER
G1 F2520 X98.10 Y93.10 E16.06775
G1 X106.90 Y93.10 E16.20190
G1 X106.90 Y101.90 E16.33605
G1 X98.10 Y101.90 E16.47020
G0 F9000 X97.70 Y102.30
;TYPE:WALL-OUTER
G1 F2520 X97.70 Y92.70 E16.61655
G1 X107.30 Y92.70 E16.76290
G1 X107.30 Y102.30 E16.90925
G1 X97.70 Y102.30 E17.05560
G0 F9000 X98.24 Y101.72
;TYPE:FILL
G1 F2520 X106.73 Y93.24 E17.23849
G0 F9000 X106.76 Y93.78
G1 F2520 X98.78 Y101.76 E17.41059
G0 F9000 X99.34 Y101.76
G1 F2520 X106.76 Y94.34 E17.57048
G0 F9000 X106.76 Y94.91
G1 F2520 X99.91 Y101.76 E17.71819
G0 F9000 X100.47 Y101.76
G1 F2520 X106.76 Y95.47 E17.85370
G0 F9000 X106.76 Y96.04
G1 F2520 X101.04 Y101.76 E17.97701
G0 F9000 X101.60 Y101.76
G1 F2520 X106.76 Y96.60 E18.08813
G0 F9000 X106.76 Y97.17
G1 F2520 X102.17 Y101.76 E18.18706
G0 F9000 X102.74 Y101.76
G1 F2520 X106.76 Y97.74 E18.27378
G0 F9000 X106.76 Y98.30
G1 F2520 X103.30 Y101.76 E18.34832
G0 F9000 X103.87 Y101.76
G1 F2520 X106.76 Y98.87 E18.41066
G0 F9000 X106.76 Y99.43
G1 F2520 X104.43 Y101.76 E18.46079
G0 F9000 X105.00 Y101.76
G1 F2520 X106.76 Y100.00 E18.49874
G0 F9000 X106.76 Y100.56
G1 F2520 X105.56 Y101.76 E18.52449
G0 F9000 X106.13 Y101.76
G1 F2520 X106.76 Y101.13 E18.53804
G0 F9000 X106.76 Y101.70
G1 F2520 X106.70 Y101.76 E18.53939
G0 F9000 X98.24 Y101.16
G1 F2520 X106.17 Y93.24 E18.71023
G0 F9000 X105.60 Y93.24
G1 F2520 X98.24 Y100.60 E18.86887
G0 F9000 X98.24 Y100.03
G1 F2520 X105.03 Y93.24 E19.01532
G0 F9000 X104.47 Y93.24
G1 F2520 X98.24 Y99.47 E19.14957
G0 F9000 X98.24 Y98.90
G1 F2520 X103.90 Y93.24 E19.27163
G0 F9000 X103.34 Y93.24
G1 F2520 X98.24 Y98.33 E19.38149
G0 F9000 X98.24 Y97.77
G1 F2520 X102.77 Y93.24 E19.47915
G0 F9000 X102.21 Y93.24
G1 F2520 X98.24 Y97.20 E19.56465
G0 F9000 X98.24 Y96.64
G1 F2520 X101.64 Y93.24 E19.63794
G0 F9000 X101.07 Y93.24
G1 F2520 X98.24 Y96.07 E19.69904
G0 F9000 X98.24 Y95.51
G1 F2520 X100.51 Y93.24 E19.74794
G0 F9000 X99.94 Y93.24
G1 F2520 X98.24 Y94.94 E19.78465
G0 F9000 X98.24 Y94.38
G1 F2520 X99.38 Y93.24 E19.80916
G0 F9000 X98.81 Y93.24
G1 F2520 X98.24 Y93.81 E19.82148
;LAYER:4
G92 E0
G1 F2400 E-16.5000
T1
G0 F9000 X98.10 Y93.10 Z1.30
;TYPE:WALL-INNER
G1 F2400 E0.00000
G1 F3000 X106.90 Y93.10 E0.13415
G1 X106.90 Y101.90 E0.26830
G1 X98.10 Y101.90 E0.40246
G1 X98.10 Y93.10 E0.53661
G0 F9000 X97.70 Y92.70
;TYPE:WALL-OUTER
G1 F3000 X107.30 Y92.70 E0.68296
G1 X107.30 Y102.30 E0.82930
G1 X97.70 Y102.30 E0.97565
G1 X97.70 Y92.70 E1.12200
G0 F9000 X98.24 Y93.43
;TYPE:FILL
G1 F3000 X106.57 Y101.76 E1.30153
G0 F9000 X106.76 Y101.39
G1 F3000 X98.61 Y93.24 E1.47715
G0 F9000 X99.18 Y93.24
G1 F3000 X106.76 Y100.82 E1.64058
G0 F9000 X106.76 Y100.25
G1 F3000 X99.74 Y93.24 E1.79182
G0 F9000 X100.31 Y93.24
G1 F3000 X106.76 Y99.69 E1.93085
G0 F9000 X106.76 Y99.12
G1 F3000 X100.88 Y93.24 E2.05769
G0 F9000 X101.44 Y93.24
G1 F3000 X106.76 Y98.56 E2.17234
G0 F9000 X106.76 Y97.99
G1 F3000 X102.01 Y93.24 E2.27479
G0 F9000 X102.57 Y93.24
G1 F3000 X106.76 Y97.43 E2.36505
G0 F9000 X106.76 Y96.86
G1 F3000 X103.14 Y93.24 E2.44311
G0 F9000 X103.70 Y93.24
G1 F3000 X106.76 Y96.29 E2.50898
G0 F9000 X106.76 Y95.73
G1 F3000 X104.27 Y93.24 E2.56265
G0 F9000 X104.83 Y93.24
G1 F3000 X106.76 Y95.16 E2.60413
G0 F9000 X106.76 Y94.60
G1 F3000 X105.40 Y93.24 E2.63341
G0 F9000 X105.97 Y93.24
G1 F3000 X106.76 Y94.03 E2.65048
G0 F9000 X106.76 Y93.47
G1 F3000 X106.53 Y93.24 E2.65537
G0 F9000 X98.24 Y94.00
G1 F3000 X106.00 Y101.76 E2.82270
G0 F9000 X105.43 Y101.76
G1 F3000 X98.24 Y94.56 E2.97784
G0 F9000 X98.24 Y95.13
G1 F3000 X104.87 Y101.76 E3.12079
G0 F9000 X104.30 Y101.76
G1 F3000 X98.24 Y95.69 E3.25154
G0 F9000 X98.24 Y96.26
G1 F3000 X103.74 Y101.76 E3.37009
G0 F9000 X103.17 Y101.76
G1 F3000 X98.24 Y96.82 E3.47645
G0 F9000 X98.24 Y97.39
G1 F3000 X102.61 Y101.76 E3.57061
G0 F9000 X102.04 Y101.76
G1 F3000 X98.24 Y97.96 E3.65258
G0 F9000 X98.24 Y98.52
G1 F3000 X101.47 Y101.76 E3.72234
G0 F9000 X100.91 Y101.76
G1 F3000 X98.24 Y99.09 E3.77990
G0 F9000 X98.24 Y99.65
G1 F3000 X100.34 Y101.76 E3.82529
G0 F9000 X99.78 Y101.76
G1 F3000 X98.24 Y100.22 E3.85847
G0 F9000 X98.24 Y100.79
G1 F3000 X99.21 Y101.76 E3.87944
G0 F9000 X98.65 Y101.76
G1 F3000 X98.24 Y101.35 E3.88823
;LAYER:5
G0 F9000 X98.10 Y101.90 Z1.55
;TYPE:WALL-INNER
G1 F3000 X98.10 Y93.10 E4.02238
G1 X106.90 Y93.10 E4.15653
G1 X106.90 Y101.90 E4.29068
G1 X98.10 Y101.90 E4.42484
G0 F9000 X97.70 Y102.30
;TYPE:WALL-OUTER
G1 F3000 X97.70 Y92.70 E4.57118
G1 X107.30 Y92.70 E4.71753
G1 X107.30 Y102.30 E4.86388
G1 X97.70 Y102.30 E5.01023
G0 F9000 X98.24 Y101.72
;TYPE:FILL
G1 F3000 X106.73 Y93.24 E5.19312
G0 F9000 X106.76 Y93.78
G1 F3000 X98.78 Y101.76 E5.36522
G0 F9000 X99.34 Y101.76
G1 F3000 X106.76 Y94.34 E5.52511
G0 F9000 X106.76 Y94.91
G1 F3000 X99.91 Y101.76 E5.67282
G0 F9000 X100.47 Y101.76
G1 F3000 X106.76 Y95.47 E5.80833
G0 F9000 X106.76 Y96.04
G1 F3000 X101.04 Y101.76 E5.93164
G0 F9000 X101.60 Y101.76
G1 F3000 X106.76 Y96.60 E6.04276
G0 F9000 X106.76 Y97.17
G1 F3000 X102.17 Y101.76 E6.14169
G0 F9000 X102.74 Y101.76
G1 F3000 X106.76 Y97.74 E6.22841
G0 F9000 X106.76 Y98.30
G1 F3000 X103.30 Y101.76 E6.30295
G0 F9000 X103.87 Y101.76
G1 F3000 X106.76 Y98.87 E6.36529
G0 F9000 X106.76 Y99.43
G1 F3000 X104.43 Y101.76 E6.41542
G0 F9000 X105.00 Y101.76
G1 F3000 X106.76 Y100.00 E6.45337
G0 F9000 X106.76 Y100.56
G1 F3000 X105.56 Y101.76 E6.47912
G0 F9000 X106.13 Y101.76
G1 F3000 X106.76 Y101.13 E6.49267
G0 F9000 X106.76 Y101.70
G1 F3000 X106.70 Y101.76 E6.49402
G0 F9000 X98.24 Y101.16
G1 F3000 X106.17 Y93.24 E6.66486
G0 F9000 X105.60 Y93.24
G1 F3000 X98.24 Y100.60 E6.82350
G0 F9000 X98.24 Y100.03
G1 F3000 X105.03 Y93.24 E6.96995
G0 F9000 X104.47 Y93.24
G1 F3000 X98.24 Y99.47 E7.10420
G0 F9000 X98.24 Y98.90
G1 F3000 X103.90 Y93.24 E7.22626
G0 F9000 X103.34 Y93.24
G1 F3000 X98.24 Y98.33 E7.33612
G0 F9000 X98.24 Y97.77
G1 F3000 X102.77 Y93.24 E7.43379
G0 F9000 X102.21 Y93.24
G1 F3000 X98.24 Y97.20 E7.51928
G0 F9000 X98.24 Y96.64
G1 F3000 X101.64 Y93.24 E7.59257
G0 F9000 X101.07 Y93.24
G1 F3000 X98.24 Y96.07 E7.65367
G0 F9000 X98.24 Y95.51
G1 F3000 X100.51 Y93.24 E7.70257
G0 F9000 X99.94 Y93.24
G1 F3000 X98.24 Y94.94 E7.73928
G0 F9000 X98.24 Y94.38
G1 F3000 X99.38 Y93.24 E7.76379
G0 F9000 X98.81 Y93.24
G1 F3000 X98.24 Y93.81 E7.77611
;LAYER:6
G0 F9000 X98.10 Y93.10 Z1.80
;TYPE:WALL-INNER
G1 F3000 X106.90 Y93.10 E7.91026
G1 X106.90 Y101.90 E8.04442
G1 X98.10 Y101.90 E8.17857
G1 X98.10 Y93.10 E8.31272
G0 F9000 X97.70 Y92.70
;TYPE:WALL-OUTER
G1 F3000 X107.30 Y92.70 E8.45907
G1 X107.30 Y102.30 E8.60541
G1 X97.70 Y102.30 E8.75176
G1 X97.70 Y92.70 E8.89811
G0 F9000 X98.24 Y93.43
;TYPE:FILL
G1 F3000 X106.57 Y101.76 E9.07764
G0 F9000 X106.76 Y101.39
G1 F3000 X98.61 Y93.24 E9.25326
G0 F9000 X99.18 Y93.24
G1 F3000 X106.76 Y100.82 E9.41669
G0 F9000 X106.76 Y100.25
G1 F3000 X99.74 Y93.24 E9.56793
G0 F9000 X100.31 Y93.24
G1 F3000 X106.76 Y99.69 E9.70696
G0 F9000 X106.76 Y99.12
G1 F3000 X100.88 Y93.24 E9.83380
G0 F9000 X101.44 Y93.24
G1 F3000 X106.76 Y98.56 E9.94846
G0 F9000 X106.76 Y97.99
G1 F3000 X102.01 Y93.24 E10.05090
G0 F9000 X102.57 Y93.24
G1 F3000 X106.76 Y97.43 E10.14116
G0 F9000 X106.76 Y96.86
G1 F3000 X103.14 Y93.24 E10.21923
G0 F9000 X103.70 Y93.24
G1 F3000 X106.76 Y96.29 E10.28509
G0 F9000 X106.76 Y95.73
G1 F3000 X104.27 Y93.24 E10.33876
G0 F9000 X104.83 Y93.24
G1 F3000 X106.76 Y95.16 E10.38024
G0 F9000 X106.76 Y94.60
G1 F3000 X105.40 Y93.24 E10.40952
G0 F9000 X105.97 Y93.24
G1 F3000 X106.76 Y94.03 E10.42659
G0 F9000 X106.76 Y93.47
G1 F3000 X106.53 Y93.24 E10.43149
G0 F9000 X98.24 Y94.00
G1 F3000 X106.00 Y101.76 E10.59882
G0 F9000 X105.43 Y101.76
G1 F3000 X98.24 Y94.56 E10.75396
G0 F9000 X98.24 Y95.13
G1 F3000 X104.87 Y101.76 E10.89690
G0 F9000 X104.30 Y101.76
G1 F3000 X98.24 Y95.69 E11.02765
G0 F9000 X98.24 Y96.26
G1 F3000 X103.74 Y101.76 E11.14620
G0 F9000 X103.17 Y101.76
G1 F3000 X98.24 Y96.82 E11.25256
G0 F9000 X98.24 Y97.39
G1 F3000 X102.61 Y101.76 E11.34672
G0 F9000 X102.04 Y101.76
G1 F3000 X98.24 Y97.96 E11.42869
G0 F9000 X98.24 Y98.52
G1 F3000 X101.47 Y101.76 E11.49845
