;Generated with Cura_SteamEngine 13.11.2
;Sliced at: Thu 12-12-2013 19:42:49
;Basic settings: Layer height: 0.25 Walls: 0.8 Fill: 100
;Print time: #P_TIME#
;Filament used: #F_AMNT#m #F_WGHT#g
;Filament cost: #F_COST#
G21        ;metric values
G90        ;absolute positioning
M107       ;start with the fan off
G28 X0 Y0  ;move X/Y to min endstops
G28 Z0     ;move Z to min endstops
G1 Z15.0 F9000 ;move the platform down 15mm
; Begin
T1
G92 E0                  ;zero the extruded length
G1 F200 E10             ;extrude 10mm of feed stock
G92 E0                  ;zero the extruded length again
G1 F200 E-16.5
T0
; End
G92 E0                  ;zero the extruded length
G1 F200 E10              ;extrude 10mm of feed stock
G92 E0                  ;zero the extruded length again
G1 F9000
M117 Printing...

;Layer count: 20
;LAYER:0
M107
G0 F3600 X88.90 Y87.63 Z0.30
;TYPE:SKIRT
G1 F2400 E0.00000
G1 F1200 X91.01 Y85.52 E0.05454
G1 X113.21 Y85.52 E0.46078
G1 X114.54 Y86.07 E0.48697
G1 X115.55 Y87.08 E0.51320
G1 X116.10 Y88.41 E0.53940
G1 X116.10 Y110.61 E0.94564
G1 X113.99 Y112.72 E1.00020
G1 X91.01 Y112.72 E1.42064
G1 X88.90 Y110.61 E1.47519
G1 X88.90 Y87.63 E1.89563
G0 F3600 X89.30 Y87.80
G1 F1200 X91.17 Y85.92 E1.94411
G1 X113.14 Y85.92 E2.34585
G1 X114.31 Y86.41 E2.36913
G1 X115.21 Y87.31 E2.39246
G1 X115.70 Y88.49 E2.41575
G1 X115.70 Y110.45 E2.81749
G1 X113.82 Y112.32 E2.86600
G1 X91.17 Y112.32 E3.28036
G1 X89.30 Y110.45 E3.32886
G1 X89.30 Y87.80 E3.74322
G92 E0
G1 F2400 E-16.5000
T1
G0 F3600 X93.00 Y89.53
G0 X93.10 Y89.72
;TYPE:WALL-INNER
G1 F2400 E0.00000
G1 F1200 X111.90 Y89.72 E0.34392
G1 X111.90 Y108.52 E0.68783
G1 X93.10 Y108.52 E1.03175
G1 X93.10 Y89.72 E1.37567
G0 F3600 X92.70 Y89.32
;TYPE:WALL-OUTER
G1 F1200 X112.30 Y89.32 E1.73422
G1 X112.30 Y108.92 E2.09277
G1 X92.70 Y108.92 E2.45132
G1 X92.70 Y89.32 E2.80987
G0 F3600 X93.24 Y90.13
;TYPE:FILL
G1 F1200 X111.49 Y108.38 E3.28212
G0 F3600 X111.76 Y108.08
G1 F1200 X93.54 Y89.86 E3.75351
G0 F3600 X94.10 Y89.86
G1 F1200 X111.76 Y107.52 E4.21028
G0 F3600 X111.76 Y106.95
G1 F1200 X94.67 Y89.86 E4.65240
G0 F3600 X95.24 Y89.86
G1 F1200 X111.76 Y106.39 E5.07989
G0 F3600 X111.76 Y105.82
G1 F1200 X95.80 Y89.86 E5.49273
G0 F3600 X96.37 Y89.86
G1 F1200 X111.76 Y105.25 E5.89095
G0 F3600 X111.76 Y104.69
G1 F1200 X96.93 Y89.86 E6.27452
G0 F3600 X97.50 Y89.86
G1 F1200 X111.76 Y104.12 E6.64347
G0 F3600 X111.76 Y103.56
G1 F1200 X98.06 Y89.86 E6.99778
G0 F3600 X98.63 Y89.86
G1 F1200 X111.76 Y102.99 E7.33745
G0 F3600 X111.76 Y102.43
G1 F1200 X99.19 Y89.86 E7.66250
G0 F3600 X99.76 Y89.86
G1 F1200 X111.76 Y101.86 E7.97291
G0 F3600 X111.76 Y101.29
G1 F1200 X100.33 Y89.86 E8.26868
G0 F3600 X100.89 Y89.86
G1 F1200 X111.76 Y100.73 E8.54981
G0 F3600 X111.76 Y100.16
G1 F1200 X101.46 Y89.86 E8.81632
G0 F3600 X102.02 Y89.86
G1 F1200 X111.76 Y99.60 E9.06819
G0 F3600 X111.76 Y99.03
G1 F1200 X102.59 Y89.86 E9.30542
G0 F3600 X103.15 Y89.86
G1 F1200 X111.76 Y98.47 E9.52803
G0 F3600 X111.76 Y97.90
G1 F1200 X103.72 Y89.86 E9.73599
G0 F3600 X104.29 Y89.86
G1 F1200 X111.76 Y97.33 E9.92932
G0 F3600 X111.76 Y96.77
G1 F1200 X104.85 Y89.86 E10.10801
G0 F3600 X105.42 Y89.86
G1 F1200 X111.76 Y96.20 E10.27207
G0 F3600 X111.76 Y95.64
G1 F1200 X105.98 Y89.86 E10.42150
G0 F3600 X106.55 Y89.86
G1 F1200 X111.76 Y95.07 E10.55629
G0 F3600 X111.76 Y94.51
G1 F1200 X107.11 Y89.86 E10.67645
G0 F3600 X107.68 Y89.86
G1 F1200 X111.76 Y93.94 E10.78196
G0 F3600 X111.76 Y93.37
G1 F1200 X108.25 Y89.86 E10.87285
G0 F3600 X108.81 Y89.86
G1 F1200 X111.76 Y92.81 E10.94910
G0 F3600 X111.76 Y92.24
G1 F1200 X109.38 Y89.86 E11.01071
G0 F3600 X109.94 Y89.86
G1 F1200 X111.76 Y91.68 E11.05769
G0 F3600 X111.76 Y91.11
G1 F1200 X110.51 Y89.86 E11.09005
G0 F3600 X111.07 Y89.86
G1 F1200 X111.76 Y90.55 E11.10776
G0 F3600 X111.76 Y89.98
G1 F1200 X111.64 Y89.86 E11.11083
G0 F3600 X93.24 Y90.69
G1 F1200 X110.93 Y108.38 E11.56844
G0 F3600 X110.36 Y108.38
G1 F1200 X93.24 Y91.26 E12.01140
G0 F3600 X93.24 Y91.82
G1 F1200 X109.80 Y108.38 E12.43974
G0 F3600 X109.23 Y108.38
G1 F1200 X93.24 Y92.39 E12.85344
G0 F3600 X93.24 Y92.96
G1 F1200 X108.66 Y108.38 E13.25250
G0 F3600 X108.10 Y108.38
G1 F1200 X93.24 Y93.52 E13.63693
G0 F3600 X93.24 Y94.09
G1 F1200 X107.53 Y108.38 E14.00673
G0 F3600 X106.97 Y108.38
G1 F1200 X93.24 Y94.65 E14.36188
G0 F3600 X93.24 Y95.22
G1 F1200 X106.40 Y108.38 E14.70241
G0 F3600 X105.84 Y108.38
G1 F1200 X93.24 Y95.78 E15.02830
G0 F3600 X93.24 Y96.35
G1 F1200 X105.27 Y108.38 E15.33955
G0 F3600 X104.70 Y108.38
G1 F1200 X93.24 Y96.92 E15.63616
G0 F3600 X93.24 Y97.48
G1 F1200 X104.14 Y108.38 E15.91815
G0 F3600 X103.57 Y108.38
G1 F1200 X93.24 Y98.05 E16.18550
G0 F3600 X93.24 Y98.61
G1 F1200 X103.01 Y108.38 E16.43821
G0 F3600 X102.44 Y108.38
G1 F1200 X93.24 Y99.18 E16.67630
G0 F3600 X93.24 Y99.74
G1 F1200 X101.88 Y108.38 E16.89975
G0 F3600 X101.31 Y108.38
G1 F1200 X93.24 Y100.31 E17.10855
G0 F3600 X93.24 Y100.88
G1 F1200 X100.75 Y108.38 E17.30274
G0 F3600 X100.18 Y108.38
G1 F1200 X93.24 Y101.44 E17.48228
G0 F3600 X93.24 Y102.01
G1 F1200 X99.61 Y108.38 E17.64718
G0 F3600 X99.05 Y108.38
G1 F1200 X93.24 Y102.57 E17.79745
G0 F3600 X93.24 Y103.14
G1 F1200 X98.48 Y108.38 E17.93309
G0 F3600 X97.92 Y108.38
G1 F1200 X93.24 Y103.70 E18.05409
G0 F3600 X93.24 Y104.27
G1 F1200 X97.35 Y108.38 E18.16046
G0 F3600 X96.79 Y108.38
G1 F1200 X93.24 Y104.83 E18.25220
G0 F3600 X93.24 Y105.40
G1 F1200 X96.22 Y108.38 E18.32929
G0 F3600 X95.65 Y108.38
G1 F1200 X93.24 Y105.97 E18.39174
G0 F3600 X93.24 Y106.53
G1 F1200 X95.09 Y108.38 E18.43958
G0 F3600 X94.52 Y108.38
G1 F1200 X93.24 Y107.10 E18.47277
G0 F3600 X93.24 Y107.66
G1 F1200 X93.96 Y108.38 E18.49132
G0 F3600 X93.39 Y108.38
G1 F1200 X93.24 Y108.23 E18.49525
;LAYER:1
M106 S255
G0 F9000 X93.10 Y108.52 Z0.55
;TYPE:WALL-INNER
G1 F1620 X93.10 Y89.72 E18.78185
G1 X111.90 Y89.72 E19.06845
G1 X111.90 Y108.52 E19.35505
G1 X93.10 Y108.52 E19.64164
G0 F9000 X92.70 Y108.92
;TYPE:WALL-OUTER
G1 F1620 X92.70 Y89.32 E19.94044
G1 X112.30 Y89.32 E20.23923
G1 X112.30 Y108.92 E20.53802
G1 X92.70 Y108.92 E20.83682
G0 F9000 X93.29 Y108.38
;TYPE:FILL
G1 F1620 X111.76 Y89.91 E21.23510
G0 F9000 X111.24 Y89.86
G1 F1620 X93.24 Y107.86 E21.62316
G0 F9000 X93.24 Y107.29
G1 F1620 X110.67 Y89.86 E21.99902
G0 F9000 X110.11 Y89.86
G1 F1620 X93.24 Y106.73 E22.36268
G0 F9000 X93.24 Y106.16
G1 F1620 X109.54 Y89.86 E22.71416
G0 F9000 X108.98 Y89.86
G1 F1620 X93.24 Y105.60 E23.05343
G0 F9000 X93.24 Y105.03
G1 F1620 X108.41 Y89.86 E23.38050
G0 F9000 X107.85 Y89.86
G1 F1620 X93.24 Y104.47 E23.69539
G0 F9000 X93.24 Y103.90
G1 F1620 X107.28 Y89.86 E23.99808
G0 F9000 X106.71 Y89.86
G1 F1620 X93.24 Y103.33 E24.28857
G0 F9000 X93.24 Y102.77
G1 F1620 X106.15 Y89.86 E24.56687
G0 F9000 X105.58 Y89.86
G1 F1620 X93.24 Y102.20 E24.83298
G0 F9000 X93.24 Y101.64
G1 F1620 X105.02 Y89.86 E25.08688
G0 F9000 X104.45 Y89.86
G1 F1620 X93.24 Y101.07 E25.32859
G0 F9000 X93.24 Y100.51
G1 F1620 X103.89 Y89.86 E25.55811
G0 F9000 X103.32 Y89.86
G1 F1620 X93.24 Y99.94 E25.77542
G0 F9000 X93.24 Y99.38
G1 F1620 X102.75 Y89.86 E25.98054
G0 F9000 X102.19 Y89.86
G1 F1620 X93.24 Y98.81 E26.17348
G0 F9000 X93.24 Y98.24
G1 F1620 X101.62 Y89.86 E26.35421
G0 F9000 X101.06 Y89.86
G1 F1620 X93.24 Y97.68 E26.52274
G0 F9000 X93.24 Y97.11
G1 F1620 X100.49 Y89.86 E26.67909
G0 F9000 X99.93 Y89.86
G1 F1620 X93.24 Y96.55 E26.82323
G0 F9000 X93.24 Y95.98
G1 F1620 X99.36 Y89.86 E26.95517
G0 F9000 X98.79 Y89.86
G1 F1620 X93.24 Y95.42 E27.07493
G0 F9000 X93.24 Y94.85
G1 F1620 X98.23 Y89.86 E27.18249
G0 F9000 X97.66 Y89.86
G1 F1620 X93.24 Y94.28 E27.27785
G0 F9000 X93.24 Y93.72
G1 F1620 X97.10 Y89.86 E27.36102
G0 F9000 X96.53 Y89.86
G1 F1620 X93.24 Y93.15 E27.43200
G0 F9000 X93.24 Y92.59
G1 F1620 X95.96 Y89.86 E27.49077
G0 F9000 X95.40 Y89.86
G1 F1620 X93.24 Y92.02 E27.53735
G0 F9000 X93.24 Y91.46
G1 F1620 X94.83 Y89.86 E27.57174
G0 F9000 X94.27 Y89.86
G1 F1620 X93.24 Y90.89 E27.59393
G0 F9000 X93.24 Y90.32
G1 F1620 X93.70 Y89.86 E27.60392
G0 F9000 X111.76 Y90.47
G1 F1620 X93.85 Y108.38 E27.99002
G0 F9000 X94.42 Y108.38
G1 F1620 X111.76 Y91.04 E28.36392
G0 F9000 X111.76 Y91.60
G1 F1620 X94.98 Y108.38 E28.72561
G0 F9000 X95.55 Y108.38
G1 F1620 X111.76 Y92.17 E29.07513
G0 F9000 X111.76 Y92.74
G1 F1620 X96.11 Y108.38 E29.41244
G0 F9000 X96.68 Y108.38
G1 F1620 X111.76 Y93.30 E29.73755
G0 F9000 X111.76 Y93.87
G1 F1620 X97.24 Y108.38 E30.05047
G0 F9000 X97.81 Y108.38
G1 F1620 X111.76 Y94.43 E30.35120
G0 F9000 X111.76 Y95.00
G1 F1620 X98.38 Y108.38 E30.63972
G0 F9000 X98.94 Y108.38
G1 F1620 X111.76 Y95.56 E30.91606
G0 F9000 X111.76 Y96.13
G1 F1620 X99.51 Y108.38 E31.18020
G0 F9000 X100.07 Y108.38
G1 F1620 X111.76 Y96.69 E31.43214
G0 F9000 X111.76 Y97.26
G1 F1620 X100.64 Y108.38 E31.67188
G0 F9000 X101.20 Y108.38
G1 F1620 X111.76 Y97.83 E31.89944
G0 F9000 X111.76 Y98.39
G1 F1620 X101.77 Y108.38 E32.11479
G0 F9000 X102.34 Y108.38
G1 F1620 X111.76 Y98.96 E32.31794
G0 F9000 X111.76 Y99.52
G1 F1620 X102.90 Y108.38 E32.50891
G0 F9000 X103.47 Y108.38
G1 F1620 X111.76 Y100.09 E32.68768
G0 F9000 X111.76 Y100.65
G1 F1620 X104.03 Y108.38 E32.85425
G0 F9000 X104.60 Y108.38
G1 F1620 X111.76 Y101.22 E33.00863
G0 F9000 X111.76 Y101.79
G1 F1620 X105.16 Y108.38 E33.15081
G0 F9000 X105.73 Y108.38
G1 F1620 X111.76 Y102.35 E33.28079
G0 F9000 X111.76 Y102.92
G1 F1620 X106.29 Y108.38 E33.39859
G0 F9000 X106.86 Y108.38
G1 F1620 X111.76 Y103.48 E33.50419
G0 F9000 X111.76 Y104.05
G1 F1620 X107.43 Y108.38 E33.59758
G0 F9000 X107.99 Y108.38
G1 F1620 X111.76 Y104.61 E33.67878
G0 F9000 X111.76 Y105.18
G1 F1620 X108.56 Y108.38 E33.74779
G0 F9000 X109.12 Y108.38
G1 F1620 X111.76 Y105.75 E33.80460
G0 F9000 X111.76 Y106.31
G1 F1620 X109.69 Y108.38 E33.84922
G0 F9000 X110.25 Y108.38
G1 F1620 X111.76 Y106.88 E33.88164
G0 F9000 X111.76 Y107.44
G1 F1620 X110.82 Y108.38 E33.90186
G0 F9000 X111.39 Y108.38
G1 F1620 X111.76 Y108.01 E33.90989
;LAYER:2
G0 F9000 X111.90 Y108.52 Z0.80
;TYPE:WALL-INNER
G1 F2100 X93.10 Y108.52 E34.19649
G1 X93.10 Y89.72 E34.48309
G1 X111.90 Y89.72 E34.76969
G1 X111.90 Y108.52 E35.05628
G0 F9000 X112.30 Y108.92
;TYPE:WALL-OUTER
G1 F2100 X92.70 Y108.92 E35.35508
G1 X92.70 Y89.32 E35.65387
G1 X112.30 Y89.32 E35.95266
G1 X112.30 Y108.92 E36.25146
G0 F9000 X111.49 Y108.38
;TYPE:FILL
G1 F2100 X93.24 Y90.13 E36.64499
G0 F9000 X93.54 Y89.86
G1 F2100 X111.76 Y108.08 E37.03782
G0 F9000 X111.76 Y107.52
G1 F2100 X94.10 Y89.86 E37.41846
G0 F9000 X94.67 Y89.86
G1 F2100 X111.76 Y106.95 E37.78689
G0 F9000 X111.76 Y106.39
G1 F2100 X95.24 Y89.86 E38.14313
G0 F9000 X95.80 Y89.86
G1 F2100 X111.76 Y105.82 E38.48717
G0 F9000 X111.76 Y105.25
G1 F2100 X96.37 Y89.86 E38.81902
G0 F9000 X96.93 Y89.86
G1 F2100 X111.76 Y104.69 E39.13866
G0 F9000 X111.76 Y104.12
G1 F2100 X97.50 Y89.86 E39.44612
G0 F9000 X98.06 Y89.86
G1 F2100 X111.76 Y103.56 E39.74138
G0 F9000 X111.76 Y102.99
G1 F2100 X98.63 Y89.86 E40.02444
G0 F9000 X99.19 Y89.86
G1 F2100 X111.76 Y102.43 E40.29531
G0 F9000 X111.76 Y101.86
G1 F2100 X99.76 Y89.86 E40.55398
G0 F9000 X100.33 Y89.86
G1 F2100 X111.76 Y101.29 E40.80046
G0 F9000 X111.76 Y100.73
G1 F2100 X100.89 Y89.86 E41.03474
G0 F9000 X101.46 Y89.86
G1 F2100 X111.76 Y100.16 E41.25683
G0 F9000 X111.76 Y99.60
G1 F2100 X102.02 Y89.86 E41.46672
G0 F9000 X102.59 Y89.86
G1 F2100 X111.76 Y99.03 E41.66441
G0 F9000 X111.76 Y98.47
G1 F2100 X103.15 Y89.86 E41.84992
G0 F9000 X103.72 Y89.86
G1 F2100 X111.76 Y97.90 E42.02322
G0 F9000 X111.76 Y97.33
G1 F2100 X104.29 Y89.86 E42.18433
G0 F9000 X104.85 Y89.86
G1 F2100 X111.76 Y96.77 E42.33324
G0 F9000 X111.76 Y96.20
G1 F2100 X105.42 Y89.86 E42.46996
G0 F9000 X105.98 Y89.86
G1 F2100 X111.76 Y95.64 E42.59448
G0 F9000 X111.76 Y95.07
G1 F2100 X106.55 Y89.86 E42.70680
G0 F9000 X107.11 Y89.86
G1 F2100 X111.76 Y94.51 E42.80694
G0 F9000 X111.76 Y93.94
G1 F2100 X107.68 Y89.86 E42.89486
G0 F9000 X108.25 Y89.86
G1 F2100 X111.76 Y93.37 E42.97060
G0 F9000 X111.76 Y92.81
G1 F2100 X108.81 Y89.86 E43.03415
G0 F9000 X109.38 Y89.86
G1 F2100 X111.76 Y92.24 E43.08549
G0 F9000 X111.76 Y91.68
G1 F2100 X109.94 Y89.86 E43.12464
G0 F9000 X110.51 Y89.86
G1 F2100 X111.76 Y91.11 E43.15160
G0 F9000 X111.76 Y90.55
G1 F2100 X111.07 Y89.86 E43.16636
G0 F9000 X111.64 Y89.86
G1 F2100 X111.76 Y89.98 E43.16892
G0 F9000 X110.93 Y108.38
G1 F2100 X93.24 Y90.69 E43.55026
G0 F9000 X93.24 Y91.26
G1 F2100 X110.36 Y108.38 E43.91939
G0 F9000 X109.80 Y108.38
G1 F2100 X93.24 Y91.82 E44.27635
G0 F9000 X93.24 Y92.39
G1 F2100 X109.23 Y108.38 E44.62110
G0 F9000 X108.66 Y108.38
G1 F2100 X93.24 Y92.96 E44.95364
G0 F9000 X93.24 Y93.52
G1 F2100 X108.10 Y108.38 E45.27400
G0 F9000 X107.53 Y108.38
G1 F2100 X93.24 Y94.09 E45.58217
G0 F9000 X93.24 Y94.65
G1 F2100 X106.97 Y108.38 E45.87813
G0 F9000 X106.40 Y108.38
G1 F2100 X93.24 Y95.22 E46.16190
G0 F9000 X93.24 Y95.78
G1 F2100 X105.84 Y108.38 E46.43348
G0 F9000 X105.27 Y108.38
G1 F2100 X93.24 Y96.35 E46.69286
G0 F9000 X93.24 Y96.92
G1 F2100 X104.70 Y108.38 E46.94003
G0 F9000 X104.14 Y108.38
G1 F2100 X93.24 Y97.48 E47.17502
G0 F9000 X93.24 Y98.05
G1 F2100 X103.57 Y108.38 E47.39781
G0 F9000 X103.01 Y108.38
G1 F2100 X93.24 Y98.61 E47.60840
G0 F9000 X93.24 Y99.18
G1 F2100 X102.44 Y108.38 E47.80681
G0 F9000 X101.88 Y108.38
G1 F2100 X93.24 Y99.74 E47.99302
G0 F9000 X93.24 Y100.31
G1 F2100 X101.31 Y108.38 E48.16702
G0 F9000 X100.75 Y108.38
G1 F2100 X93.24 Y100.88 E48.32884
G0 F9000 X93.24 Y101.44
G1 F2100 X100.18 Y108.38 E48.47846
G0 F9000 X99.61 Y108.38
G1 F2100 X93.24 Y102.01 E48.61588
G0 F9000 X93.24 Y102.57
G1 F2100 X99.05 Y108.38 E48.74110
G0 F9000 X98.48 Y108.38
G1 F2100 X93.24 Y103.14 E48.85414
G0 F9000 X93.24 Y103.70
G1 F2100 X97.92 Y108.38 E48.95497
G0 F9000 X97.35 Y108.38
G1 F2100 X93.24 Y104.27 E49.04361
G0 F9000 X93.24 Y104.83
G1 F2100 X96.79 Y108.38 E49.12006
G0 F9000 X96.22 Y108.38
G1 F2100 X93.24 Y105.40 E49.18430
G0 F9000 X93.24 Y105.97
G1 F2100 X95.65 Y108.38 E49.23635
G0 F9000 X95.09 Y108.38
G1 F2100 X93.24 Y106.53 E49.27621
G0 F9000 X93.24 Y107.10
G1 F2100 X94.52 Y108.38 E49.30387
G0 F9000 X93.96 Y108.38
G1 F2100 X93.24 Y107.66 E49.31933
G0 F9000 X93.24 Y108.23
G1 F2100 X93.39 Y108.38 E49.32261
;LAYER:3
G0 F9000 X93.10 Y108.52 Z1.05
;TYPE:WALL-INNER
G1 F2520 X93.10 Y89.72 E49.60920
G1 X111.90 Y89.72 E49.89580
G1 X111.90 Y108.52 E50.18240
G1 X93.10 Y108.52 E50.46900
G0 F9000 X92.70 Y108.92
;TYPE:WALL-OUTER
G1 F2520 X92.70 Y89.32 E50.76779
G1 X112.30 Y89.32 E51.06658
G1 X112.30 Y108.92 E51.36537
G1 X92.70 Y108.92 E51.66417
G0 F9000 X93.29 Y108.38
;TYPE:FILL
G1 F2520 X111.76 Y89.91 E52.06245
G0 F9000 X111.24 Y89.86
G1 F2520 X93.24 Y107.86 E52.45051
G0 F9000 X93.24 Y107.29
G1 F2520 X110.67 Y89.86 E52.82637
G0 F9000 X110.11 Y89.86
G1 F2520 X93.24 Y106.73 E53.19003
G0 F9000 X93.24 Y106.16
G1 F2520 X109.54 Y89.86 E53.54151
G0 F9000 X108.98 Y89.86
G1 F2520 X93.24 Y105.60 E53.88078
G0 F9000 X93.24 Y105.03
G1 F2520 X108.41 Y89.86 E54.20785
G0 F9000 X107.85 Y89.86
G1 F2520 X93.24 Y104.47 E54.52275
G0 F9000 X93.24 Y103.90
G1 F2520 X107.28 Y89.86 E54.82543
G0 F9000 X106.71 Y89.86
G1 F2520 X93.24 Y103.33 E55.11592
G0 F9000 X93.24 Y102.77
G1 F2520 X106.15 Y89.86 E55.39423
G0 F9000 X105.58 Y89.86
G1 F2520 X93.24 Y102.20 E55.66033
G0 F9000 X93.24 Y101.64
G1 F2520 X105.02 Y89.86 E55.91423
G0 F9000 X104.45 Y89.86
G1 F2520 X93.24 Y101.07 E56.15594
G0 F9000 X93.24 Y100.51
G1 F2520 X103.89 Y89.86 E56.38546
G0 F9000 X103.32 Y89.86
G1 F2520 X93.24 Y99.94 E56.60277
G0 F9000 X93.24 Y99.38
G1 F2520 X102.75 Y89.86 E56.80790
G0 F9000 X102.19 Y89.86
G1 F2520 X93.24 Y98.81 E57.00083
G0 F9000 X93.24 Y98.24
G1 F2520 X101.62 Y89.86 E57.18156
G0 F9000 X101.06 Y89.86
G1 F2520 X93.24 Y97.68 E57.35009
G0 F9000 X93.24 Y97.11
G1 F2520 X100.49 Y89.86 E57.50644
G0 F9000 X99.93 Y89.86
G1 F2520 X93.24 Y96.55 E57.65058
G0 F9000 X93.24 Y95.98
G1 F2520 X99.36 Y89.86 E57.78253
G0 F9000 X98.79 Y89.86
G1 F2520 X93.24 Y95.42 E57.90229
G0 F9000 X93.24 Y94.85
G1 F2520 X98.23 Y89.86 E58.00984
G0 F9000 X97.66 Y89.86
G1 F2520 X93.24 Y94.28 E58.10520
G0 F9000 X93.24 Y93.72
G1 F2520 X97.10 Y89.86 E58.18838
G0 F9000 X96.53 Y89.86
G1 F2520 X93.24 Y93.15 E58.25935
G0 F9000 X93.24 Y92.59
G1 F2520 X95.96 Y89.86 E58.31812
